; generated by PrusaSlicer 2.8.0+win64 on 2024-07-22 at 16:07:58 UTC


;
;
; 

; external perimeters extrusion width = 0.60mm
; perimeters extrusion width = 0.50mm
; infill extrusion width = 0.50mm
; solid infill extrusion width = 0.50mm
; top infill extrusion width = 0.45mm
; first layer extrusion width = 0.42mm

M73 P0 R2
M73 Q0 S2
M201 X1000 Y1000 Z200 E5000 ; sets maximum accelerations, mm/sec^2
M203 X200 Y200 Z12 E120 ; sets maximum feedrates, mm / sec
M204 S1250 T1250 ; sets acceleration (S) and retract acceleration (R), mm/sec^2
M205 X8.00 Y8.00 Z0.40 E4.50 ; sets the jerk limits, mm/sec
M205 S0 T0 ; sets the minimum extruding and travel feed rate, mm/sec

; printing object FITTING_XY_Scissor_Wallmount.stl id:0 copy 0
; stop printing object FITTING_XY_Scissor_Wallmount.stl id:0 copy 0

;TYPE:Custom
M862.3 P "MK3S" ; printer model check
M862.1 P0.4 ; nozzle diameter check
M115 U3.13.3 ; tell printer latest fw version
G90 ; use absolute coordinates
M83 ; extruder relative mode
M104 S230 ; set extruder temp
M140 S85 ; set bed temp
M190 S85 ; wait for bed temp
M109 S230 ; wait for extruder temp
G28 W ; home all without mesh bed level
G80 X113.746 Y87.2531 W22.5083 H35.501 ; mesh bed levelling

G1 Z0.2 F720
G1 Y-3 F1000 ; go outside print area
G92 E0
G1 X60 E9 F1000 ; intro line
G1 X100 E12.5 F1000 ; intro line
M73 P2 R2
M73 Q2 S2

G92 E0
M221 S95

; Don't change E values below. Excessive value can damage the printer.

M907 E538 ; set extruder motor current
G21 ; set units to millimeters
G90 ; use absolute coordinates
M83 ; use relative distances for extrusion

M900 K0.08 ; Filament gcode LA 1.5
M900 K45 ; Filament gcode LA 1.0




M107
;LAYER_CHANGE
;Z:0.2
;HEIGHT:0.2
G1 E-1 F2100
M73 P4 R2
M73 Q4 S2
G1 Z.4 F720
G1 X117.647 Y91.736 F10800
G1 Z.2 F720
M73 P5 R2
M73 Q5 S2
G1 E1 F2100
M204 S800
;TYPE:Skirt/Brim
;WIDTH:0.42
G1 F1200
G1 X119.095 Y90.04 E.06992
G1 X119.91 Y89.321 E.03408
G1 X120.785 Y88.7 E.03364
G1 X122.023 Y88.053 E.0438
G1 X123.747 Y87.546 E.05634
G1 X125.326 Y87.451 E.0496
G1 X126.95 Y87.699 E.05151
G1 X128.28 Y88.188 E.04443
M73 Q6 S2
G1 X129.869 Y89.15 E.05824
G1 X130.905 Y90.04 E.04282
G1 X132.23 Y91.568 E.06341
G1 X132.989 Y92.699 E.04271
M73 P6 R2
G1 X134.086 Y94.825 E.07501
G1 X134.906 Y97.04 E.07406
G1 X135.569 Y99.703 E.08605
G1 X135.932 Y102.228 E.07998
G1 X136.036 Y103.701 E.0463
G1 X136.066 Y119.8 E.50477
G1 X135.998 Y120.408 E.01918
M73 P7 R2
M73 Q7 S2
G1 X135.636 Y121.28 E.0296
G1 X135.161 Y121.845 E.02314
G1 X134.365 Y122.352 E.02959
G1 X133.652 Y122.543 E.02314
G1 X116.7 Y122.566 E.53152
G1 X116.092 Y122.498 E.01918
M73 Q8 S2
G1 X115.22 Y122.136 E.0296
G1 X114.655 Y121.661 E.02314
M73 P8 R2
G1 X114.15 Y120.871 E.0294
G1 X113.94 Y119.97 E.02901
G1 X113.964 Y103.701 E.5101
G1 X114.23 Y100.891 E.0885
G1 X114.743 Y98.29 E.08312
M73 Q9 S2
G1 X115.506 Y95.834 E.08064
G1 X116.507 Y93.591 E.07701
M73 P9 R2
G1 X117.615 Y91.787 E.06638
M204 S1000
G1 X117.615 Y91.787 F10800
G1 X117.946 Y91.993
M204 S800
G1 F1200
G1 X118.065 Y91.802 E.00706
G1 X119.369 Y90.3 E.06237
G1 X120.156 Y89.606 E.0329
G1 X120.999 Y89.01 E.03237
G1 X122.154 Y88.406 E.04087
G1 X123.828 Y87.914 E.05471
G1 X125.299 Y87.827 E.0462
G1 X126.869 Y88.067 E.0498
G1 X128.104 Y88.522 E.04127
G1 X129.656 Y89.461 E.05688
G1 X130.631 Y90.3 E.04033
M73 P9 R1
G1 X131.935 Y91.802 E.06237
G1 X132.661 Y92.885 E.04088
M73 Q10 S2
G1 X133.736 Y94.966 E.07344
G1 X134.549 Y97.161 E.07339
G1 X135.197 Y99.765 E.08414
M73 P10 R1
G1 X135.557 Y102.273 E.07944
M73 Q10 S1
G1 X135.659 Y103.71 E.04517
G1 X135.689 Y119.8 E.50449
G1 X135.58 Y120.51 E.02252
M73 Q11 S1
G1 X135.309 Y121.092 E.02013
G1 X134.76 Y121.69 E.02545
G1 X134.204 Y122.01 E.02011
M73 P11 R1
G1 X133.413 Y122.186 E.02541
G1 X116.7 Y122.189 E.52402
G1 X115.99 Y122.08 E.02252
G1 X115.408 Y121.809 E.02013
G1 X114.83 Y121.285 E.02446
G1 X114.431 Y120.546 E.02633
G1 X114.314 Y119.895 E.02074
G1 X114.341 Y103.71 E.50747
M73 Q12 S1
G1 X114.602 Y100.954 E.0868
M73 P12 R1
G1 X115.107 Y98.39 E.08194
G1 X115.855 Y95.975 E.07927
G1 X116.842 Y93.762 E.07598
G1 X117.914 Y92.044 E.06349
M73 Q13 S1
M204 S1000
;WIPE_START
G1 F8640
G1 X117.946 Y91.993 E-.0139
G1 X118.065 Y91.802 E-.05196
G1 X119.369 Y90.3 E-.45928
G1 X120.156 Y89.606 E-.24228
G1 X120.978 Y89.025 E-.23258
;WIPE_END
G1 Z.4 F720
M73 P13 R1
; printing object FITTING_XY_Scissor_Wallmount.stl id:0 copy 0
G1 X127.234 Y117.793 F10800
G1 Z.2 F720
G1 E1 F2100
M204 S800
;TYPE:External perimeter
;WIDTH:0.419999
G1 F1200
G1 X127.214 Y117.802 E.00069
G1 X126.517 Y117.91 E.02211
G1 X123.488 Y117.91 E.09497
G1 X122.98 Y117.853 E.01603
G1 X122.502 Y117.694 E.01579
G1 X122.067 Y117.438 E.01583
G1 X121.696 Y117.098 E.01578
G1 X121.403 Y116.688 E.0158
G1 X121.198 Y116.214 E.01619
G1 X121.09 Y115.517 E.02211
G1 X121.09 Y109.823 E.17853
G1 X121.008 Y109.468 E.01142
M73 Q14 S1
G1 X120.84 Y109.281 E.00788
G1 X120.361 Y109.06 E.01654
G1 X119.92 Y108.755 E.01681
G1 X119.576 Y108.387 E.01579
G1 X119.316 Y107.955 E.01581
G1 X119.151 Y107.475 E.01591
G1 X119.09 Y106.949 E.0166
G1 X119.09 Y103.062 E.12187
M73 P14 R1
G1 X119.147 Y102.553 E.01606
G1 X119.306 Y102.075 E.01579
G1 X119.562 Y101.641 E.0158
G1 X119.902 Y101.269 E.0158
G1 X120.302 Y100.981 E.01545
G1 X120.891 Y100.676 E.0208
G1 X121.023 Y100.497 E.00697
G1 X121.079 Y100.199 E.00951
G1 X121.086 Y96.466 E.11705
G1 X121.09 Y94.488 E.06202
G1 X121.147 Y93.98 E.01603
G1 X121.306 Y93.502 E.01579
G1 X121.562 Y93.067 E.01583
G1 X121.902 Y92.696 E.01578
G1 X122.312 Y92.403 E.0158
G1 X122.789 Y92.197 E.01629
G1 X123.453 Y92.092 E.02108
G1 X126.512 Y92.09 E.09591
G1 X127.02 Y92.147 E.01603
G1 X127.498 Y92.306 E.01579
G1 X127.933 Y92.562 E.01583
M73 Q15 S1
G1 X128.304 Y92.902 E.01578
G1 X128.597 Y93.312 E.0158
G1 X128.803 Y93.789 E.01629
G1 X128.908 Y94.453 E.02108
G1 X128.91 Y100.177 E.17947
G1 X128.992 Y100.532 E.01142
M73 P15 R1
G1 X129.16 Y100.719 E.00788
G1 X129.639 Y100.94 E.01654
G1 X130.08 Y101.245 E.01681
G1 X130.424 Y101.613 E.01579
G1 X130.684 Y102.045 E.01581
G1 X130.849 Y102.525 E.01591
G1 X130.909 Y103.029 E.01591
G1 X130.91 Y106.938 E.12256
G1 X130.853 Y107.447 E.01606
G1 X130.694 Y107.925 E.01579
G1 X130.438 Y108.359 E.0158
G1 X130.098 Y108.731 E.0158
G1 X129.698 Y109.019 E.01545
G1 X129.109 Y109.324 E.0208
G1 X128.977 Y109.503 E.00697
G1 X128.921 Y109.801 E.00951
G1 X128.91 Y115.512 E.17906
G1 X128.852 Y116.025 E.01619
G1 X128.676 Y116.524 E.01659
G1 X128.438 Y116.933 E.01484
M73 Q16 S1
G1 X128.098 Y117.304 E.01578
G1 X127.688 Y117.597 E.0158
G1 X127.289 Y117.769 E.01362
M204 S1000
;WIPE_START
G1 F8640
G1 X127.234 Y117.793 E-.01386
G1 X127.214 Y117.802 E-.00506
G1 X126.517 Y117.91 E-.16286
G1 X123.488 Y117.91 E-.6994
G1 X122.98 Y117.853 E-.11803
G1 X122.977 Y117.852 E-.00079
;WIPE_END
G1 Z.4 F720
G1 X120.862 Y93.266 F10800
M73 P16 R1
G1 Z.2 F720
G1 E1 F2100
M204 S800
;TYPE:Perimeter
;WIDTH:0.670876
G1 F1200
G1 X121.014 Y93.052 E.01371
;WIDTH:0.622146
G1 X121.167 Y92.838 E.01267
;WIDTH:0.573416
G1 X121.543 Y92.426 E.0246
;WIDTH:0.587304
G1 X122.007 Y92.05 E.02703
M204 S1000
;WIPE_START
G1 F8640
G1 X121.543 Y92.426 E-.1379
G1 X121.167 Y92.838 E-.12879
G1 X121.014 Y93.052 E-.06074
G1 X120.862 Y93.266 E-.06061
;WIPE_END
G1 E-.61196 F2100
G1 Z.4 F720
G1 X127.741 Y91.886 F10800
G1 Z.2 F720
G1 E1 F2100
M204 S800
;WIDTH:0.635782
G1 F1200
G1 X127.67 Y91.877 E.00353
;WIDTH:0.595432
G1 X127.6 Y91.867 E.00325
;WIDTH:0.555082
G1 X127.407 Y91.833 E.00835
;WIDTH:0.509213
G1 X127.214 Y91.799 E.0076
;WIDTH:0.463344
G1 X127.021 Y91.765 E.00685
;WIDTH:0.419999
G1 X126.512 Y91.713 E.01604
G1 X123.394 Y91.72 E.09776
G1 X122.588 Y91.867 E.02569
M73 Q17 S1
;WIDTH:0.461826
G1 X122.443 Y91.913 E.0053
;WIDTH:0.503652
G1 X122.298 Y91.958 E.00582
;WIDTH:0.545478
G1 X122.152 Y92.004 E.0064
;WIDTH:0.587304
G1 X122.007 Y92.05 E.00689
G1 X122.054 Y91.989 E.00349
;WIDTH:0.556529
G1 X122.102 Y91.928 E.00331
;WIDTH:0.525753
G1 X122.287 Y91.779 E.00954
;WIDTH:0.490502
G1 X122.472 Y91.631 E.00882
;WIDTH:0.455251
G1 X122.657 Y91.483 E.00812
;WIDTH:0.419999
G1 X123.378 Y91.126 E.02523
G1 X123.849 Y90.956 E.0157
G1 X124.444 Y90.83 E.01907
G1 X125.033 Y90.792 E.01851
M73 P17 R1
G1 X125.619 Y90.839 E.01843
G1 X126.202 Y90.971 E.01874
G1 X126.782 Y91.188 E.01942
G1 X127.364 Y91.489 E.02054
;WIDTH:0.454924
G1 X127.439 Y91.569 E.00376
;WIDTH:0.500139
G1 X127.515 Y91.648 E.00417
;WIDTH:0.545353
G1 X127.59 Y91.728 E.00458
;WIDTH:0.590568
G1 X127.665 Y91.807 E.00496
;WIDTH:0.635782
G1 X127.699 Y91.843 E.00244
M204 S1000
G1 X127.699 Y91.843 F10800
G1 X127.741 Y91.886
M204 S800
G1 F1200
G1 X127.98 Y92.055 E.01443
;WIDTH:0.59466
G1 X128.22 Y92.223 E.01344
;WIDTH:0.553538
G1 X128.607 Y92.58 E.02235
;WIDTH:0.578695
G1 X128.784 Y92.79 E.01224
;WIDTH:0.612136
G1 X128.96 Y93 E.01297
;WIDTH:0.624386
G1 X129.012 Y93.07 E.00422
M204 S1000
;WIPE_START
G1 F8640
G1 X128.96 Y93 E-.02013
G1 X128.784 Y92.79 E-.06327
G1 X128.607 Y92.58 E-.06342
G1 X128.22 Y92.223 E-.12157
G1 X127.98 Y92.055 E-.06764
G1 X127.741 Y91.886 E-.06759
;WIPE_END
G1 E-.59638 F2100
G1 Z.4 F720
G1 X127.338 Y118.146 F10800
G1 Z.2 F720
G1 E1 F2100
M204 S800
;WIDTH:0.419999
G1 F1200
G1 X127.412 Y118.133 E.00236
G1 X127.944 Y117.882 E.01844
G1 X128.408 Y117.53 E.01826
G1 X128.788 Y117.089 E.01825
G1 X129.032 Y116.647 E.01583
G1 X129.237 Y116.022 E.02062
M73 Q18 S1
G1 X129.287 Y115.513 E.01604
G1 X129.297 Y110.296 E.16358
G1 X129.325 Y109.667 E.01974
G1 X129.433 Y109.581 E.00433
M73 P18 R1
G1 X130 Y109.268 E.02031
G1 X130.408 Y108.957 E.01609
G1 X130.788 Y108.516 E.01825
G1 X131.068 Y108.005 E.01827
G1 X131.237 Y107.448 E.01825
G1 X131.287 Y106.938 E.01607
G1 X131.283 Y102.985 E.12394
G1 X131.195 Y102.358 E.01985
G1 X131.017 Y101.865 E.01643
G1 X130.746 Y101.416 E.01644
G1 X130.354 Y100.985 E.01827
G1 X129.889 Y100.65 E.01797
G1 X129.507 Y100.464 E.01332
G1 X129.314 Y100.326 E.00744
G1 X129.287 Y100.149 E.00561
G1 X129.28 Y94.394 E.18044
G1 X129.133 Y93.588 E.02569
;WIDTH:0.460877
G1 X129.109 Y93.485 E.00368
;WIDTH:0.501754
G1 X129.085 Y93.381 E.00407
;WIDTH:0.542632
G1 X129.06 Y93.277 E.00444
;WIDTH:0.583509
G1 X129.036 Y93.174 E.00475
;WIDTH:0.624386
G1 X129.012 Y93.07 E.00516
G1 X129.093 Y93.139 E.00514
;WIDTH:0.583509
G1 X129.174 Y93.209 E.00481
;WIDTH:0.542632
G1 X129.255 Y93.278 E.00442
;WIDTH:0.501754
G1 X129.336 Y93.347 E.00406
;WIDTH:0.460877
G1 X129.417 Y93.416 E.0037
;WIDTH:0.419999
G1 X129.584 Y93.627 E.00844
G1 X130.086 Y94.378 E.02832
G1 X130.556 Y95.205 E.02982
M73 Q19 S1
G1 X130.987 Y96.105 E.03129
G1 X131.378 Y97.07 E.03265
G1 X131.723 Y98.092 E.03382
G1 X132.02 Y99.165 E.03491
G1 X132.267 Y100.28 E.03581
G1 X132.461 Y101.43 E.03657
M73 P19 R1
G1 X132.6 Y102.605 E.0371
G1 X132.685 Y103.798 E.0375
G1 X132.713 Y105.017 E.03823
G1 X132.713 Y119.213 E.4451
G1 X117.287 Y119.213 E.48367
G1 X117.287 Y105.009 E.44536
M73 P20 R1
M73 Q20 S1
G1 X117.315 Y103.798 E.03798
M73 Q21 S1
G1 X117.4 Y102.605 E.0375
G1 X117.539 Y101.43 E.0371
G1 X117.733 Y100.28 E.03657
M73 P21 R1
G1 X117.98 Y99.165 E.03581
G1 X118.277 Y98.092 E.03491
G1 X118.612 Y97.1 E.03283
G1 X119.025 Y96.08 E.0345
G1 X119.456 Y95.186 E.03112
G1 X120.042 Y94.185 E.03637
G1 X120.421 Y93.62 E.02133
;WIDTH:0.461812
G1 X120.495 Y93.561 E.0033
;WIDTH:0.503625
G1 X120.568 Y93.502 E.0036
;WIDTH:0.545438
G1 X120.642 Y93.443 E.00395
;WIDTH:0.587251
G1 X120.715 Y93.384 E.00425
;WIDTH:0.629064
G1 X120.789 Y93.325 E.00461
;WIDTH:0.670876
G1 X120.862 Y93.266 E.0049
G1 X120.856 Y93.331 E.00341
;WIDTH:0.63042
G1 X120.851 Y93.395 E.00314
;WIDTH:0.589963
G1 X120.829 Y93.541 E.00672
;WIDTH:0.547472
G1 X120.807 Y93.687 E.00619
;WIDTH:0.504981
G1 X120.785 Y93.833 E.00567
;WIDTH:0.46249
G1 X120.763 Y93.979 E.00515
;WIDTH:0.419999
G1 X120.713 Y94.487 E.016
G1 X120.703 Y99.704 E.16358
G1 X120.675 Y100.333 E.01974
G1 X120.567 Y100.419 E.00433
G1 X120.056 Y100.691 E.01815
G1 X119.592 Y101.043 E.01826
G1 X119.212 Y101.484 E.01825
G1 X118.932 Y101.995 E.01827
G1 X118.763 Y102.552 E.01825
G1 X118.713 Y103.062 E.01607
G1 X118.713 Y106.949 E.12187
G1 X118.781 Y107.551 E.019
M73 Q22 S1
G1 X118.961 Y108.081 E.01755
G1 X119.254 Y108.584 E.01825
G1 X119.646 Y109.015 E.01827
G1 X119.97 Y109.253 E.01261
G1 X120.493 Y109.536 E.01865
M73 P22 R1
G1 X120.686 Y109.674 E.00744
G1 X120.713 Y109.851 E.00561
G1 X120.713 Y115.517 E.17765
G1 X120.867 Y116.412 E.02847
G1 X121.118 Y116.944 E.01844
G1 X121.47 Y117.408 E.01826
G1 X121.911 Y117.788 E.01825
G1 X122.421 Y118.068 E.01824
G1 X122.979 Y118.237 E.01828
G1 X123.488 Y118.287 E.01604
G1 X126.517 Y118.287 E.09497
G1 X127.279 Y118.156 E.02424
M204 S1000
;WIPE_START
G1 F8640
G1 X127.338 Y118.146 E-.01382
G1 X127.412 Y118.133 E-.01735
G1 X127.944 Y117.882 E-.13583
G1 X128.408 Y117.53 E-.13448
G1 X128.788 Y117.089 E-.13442
G1 X129.032 Y116.647 E-.11658
G1 X129.237 Y116.022 E-.15188
G1 X129.287 Y115.513 E-.1181
G1 X129.288 Y114.744 E-.17754
;WIPE_END
G1 Z.4 F720
G1 X116.91 Y119.59 F10800
G1 Z.2 F720
M73 Q23 S1
G1 E1 F2100
M204 S800
;TYPE:External perimeter
G1 F1200
G1 X116.91 Y105.004 E.45733
G1 X116.939 Y103.781 E.03836
M73 P23 R1
G1 X117.024 Y102.57 E.03806
G1 X117.166 Y101.376 E.0377
G1 X117.363 Y100.208 E.03714
G1 X117.614 Y99.074 E.03642
G1 X117.917 Y97.981 E.03556
G1 X118.269 Y96.938 E.03451
M73 Q24 S1
G1 X118.668 Y95.953 E.03332
G1 X119.11 Y95.031 E.03206
G1 X119.592 Y94.179 E.03069
G1 X120.111 Y93.405 E.02922
G1 X120.661 Y92.712 E.02774
G1 X121.238 Y92.105 E.02626
G1 X121.837 Y91.588 E.02481
M73 P24 R1
G1 X122.452 Y91.164 E.02342
G1 X123.081 Y90.834 E.02227
G1 X123.717 Y90.599 E.02126
G1 X124.357 Y90.458 E.02055
G1 X125 Y90.411 E.02021
G1 X125.643 Y90.458 E.02021
G1 X126.283 Y90.599 E.02055
G1 X126.919 Y90.834 E.02126
G1 X127.548 Y91.164 E.02227
G1 X128.163 Y91.588 E.02342
G1 X128.762 Y92.105 E.02481
G1 X129.339 Y92.712 E.02626
G1 X129.889 Y93.405 E.02774
G1 X130.408 Y94.18 E.02925
G1 X130.89 Y95.031 E.03067
G1 X131.332 Y95.953 E.03206
G1 X131.731 Y96.938 E.03332
G1 X132.083 Y97.981 E.03451
G1 X132.386 Y99.074 E.03556
G1 X132.637 Y100.208 E.03642
G1 X132.834 Y101.376 E.03714
G1 X132.976 Y102.57 E.0377
G1 X133.061 Y103.781 E.03806
M73 Q25 S1
G1 X133.09 Y105.017 E.03876
G1 X133.09 Y119.59 E.45693
G1 X116.97 Y119.59 E.50543
M73 P25 R1
M204 S1000
;WIPE_START
G1 F8640
M73 P26 R1
M73 Q26 S1
G1 X116.91 Y119.59 E-.01385
G1 X116.91 Y115.319 E-.98615
;WIPE_END
G1 Z.4 F720
G1 X120.543 Y94.87 F10800
G1 Z.2 F720
G1 E1 F2100
M204 S800
;TYPE:Solid infill
;WIDTH:0.425123
G1 F1200
G1 X120.213 Y94.541 E.01481
G1 X120.016 Y94.885 E.0126
G1 X120.372 Y95.24 E.01598
G1 X120.371 Y95.78 E.01716
G1 X119.821 Y95.23 E.02472
G1 X119.638 Y95.587 E.01275
G1 X120.37 Y96.319 E.0329
G1 X120.369 Y96.859 E.01716
G1 X119.462 Y95.952 E.04076
G1 X119.291 Y96.321 E.01292
G1 X120.368 Y97.398 E.0484
G1 X120.367 Y97.938 E.01716
M73 Q27 S1
G1 X119.135 Y96.706 E.05537
G1 X118.98 Y97.091 E.01319
G1 X120.366 Y98.477 E.06229
G1 X120.365 Y99.017 E.01716
M73 P27 R1
G1 X118.838 Y97.49 E.06863
G1 X118.702 Y97.894 E.01355
G1 X120.364 Y99.556 E.0747
G1 X120.363 Y100.096 E.01716
G1 X118.571 Y98.304 E.08054
G1 X118.453 Y98.727 E.01396
G1 X120.04 Y100.313 E.0713
G1 X119.895 Y100.39 E.00522
G1 X119.71 Y100.524 E.00726
G1 X118.336 Y99.15 E.06175
G1 X118.234 Y99.588 E.01429
G1 X119.408 Y100.763 E.05279
G1 X119.145 Y101.04 E.01214
G1 X118.136 Y100.031 E.04535
G1 X118.044 Y100.479 E.01453
G1 X118.904 Y101.339 E.03865
G1 X118.706 Y101.682 E.01259
M73 Q28 S1
G1 X117.966 Y100.942 E.03326
G1 X117.888 Y101.404 E.01489
G1 X118.555 Y102.072 E.03
G1 X118.43 Y102.487 E.01377
G1 X117.827 Y101.884 E.0271
G1 X117.77 Y102.367 E.01546
G1 X118.381 Y102.979 E.02748
M73 P28 R1
G1 X118.374 Y103.512 E.01694
G1 X117.722 Y102.86 E.0293
G1 X117.686 Y103.365 E.01609
G1 X118.374 Y104.052 E.0309
G1 X118.374 Y104.593 E.01719
G1 X117.653 Y103.872 E.0324
G1 X117.641 Y104.4 E.01678
G1 X118.374 Y105.133 E.03294
G1 X118.374 Y105.674 E.01719
G1 X117.628 Y104.929 E.03351
G1 X117.626 Y105.013 E.00267
G1 X117.626 Y105.467 E.01443
G1 X118.374 Y106.214 E.0336
G1 X118.374 Y106.755 E.01719
G1 X117.626 Y106.008 E.0336
G1 X117.626 Y106.548 E.01716
G1 X118.415 Y107.337 E.03546
