; generated by PrusaSlicer 2.8.0+win64 on 2024-07-22 at 20:27:55 UTC


;
;
; 

; external perimeters extrusion width = 0.60mm
; perimeters extrusion width = 0.50mm
; infill extrusion width = 0.50mm
; solid infill extrusion width = 0.50mm
; top infill extrusion width = 0.45mm
; first layer extrusion width = 0.42mm

M73 P0 R29
M73 Q0 S29
M201 X1000 Y1000 Z200 E5000 ; sets maximum accelerations, mm/sec^2
M203 X200 Y200 Z12 E120 ; sets maximum feedrates, mm / sec
M204 S1250 T1250 ; sets acceleration (S) and retract acceleration (R), mm/sec^2
M205 X8.00 Y8.00 Z0.40 E4.50 ; sets the jerk limits, mm/sec
M205 S0 T0 ; sets the minimum extruding and travel feed rate, mm/sec

; printing object Scissor_Wallmount_Cliper.stl id:0 copy 0
; stop printing object Scissor_Wallmount_Cliper.stl id:0 copy 0

;TYPE:Custom
M862.3 P "MK3S" ; printer model check
M862.1 P0.4 ; nozzle diameter check
M115 U3.13.3 ; tell printer latest fw version
G90 ; use absolute coordinates
M83 ; extruder relative mode
M104 S230 ; set extruder temp
M140 S85 ; set bed temp
M190 S85 ; wait for bed temp
M109 S230 ; wait for extruder temp
G28 W ; home all without mesh bed level
G80 X115.373 Y76.665 W19.2541 H56.7121 ; mesh bed levelling

G1 Z0.2 F720
G1 Y-3 F1000 ; go outside print area
G92 E0
G1 X60 E9 F1000 ; intro line
G1 X100 E12.5 F1000 ; intro line

G92 E0
M221 S95

; Don't change E values below. Excessive value can damage the printer.

M907 E538 ; set extruder motor current
G21 ; set units to millimeters
G90 ; use absolute coordinates
M83 ; use relative distances for extrusion

M900 K0.08 ; Filament gcode LA 1.5
M900 K45 ; Filament gcode LA 1.0




M107
;LAYER_CHANGE
;Z:0.2
;HEIGHT:0.2
G1 E-1 F2100
G1 Z.4 F720
G1 X119.538 Y79.955 F10800
G1 Z.2 F720
G1 E1 F2100
M204 S800
;TYPE:Skirt/Brim
;WIDTH:0.42
G1 F1200
G1 X120.951 Y78.44 E.06496
G1 X121.406 Y78.081 E.01817
G1 X122.627 Y77.359 E.04448
G1 X123.326 Y77.094 E.02344
G1 X124.585 Y76.851 E.0402
G1 X125.423 Y76.853 E.02627
G1 X126.674 Y77.094 E.03995
G1 X127.373 Y77.359 E.02344
G1 X128.594 Y78.081 E.04448
G1 X129.049 Y78.44 E.01817
G1 X130.462 Y79.955 E.06496
G1 X131.654 Y81.84 E.06993
G1 X132.64 Y84.054 E.07599
G1 X133.42 Y86.548 E.08193
G1 X133.954 Y89.075 E.08098
G1 X134.312 Y91.958 E.09109
G1 X134.439 Y95 E.09546
G1 X134.439 Y131 E1.12875
G1 X134.048 Y132.248 E.04101
G1 X133.015 Y133.051 E.04102
G1 X132.25 Y133.189 E.02437
G1 X117.75 Y133.189 E.45464
G1 X116.502 Y132.798 E.04101
G1 X115.699 Y131.765 E.04102
G1 X115.561 Y131 E.02437
G1 X115.561 Y95 E1.12875
G1 X115.673 Y92.135 E.0899
G1 X116.015 Y89.264 E.09065
G1 X116.58 Y86.548 E.08698
G1 X117.36 Y84.053 E.08196
G1 X118.346 Y81.84 E.07596
G1 X119.506 Y80.005 E.06807
M204 S1000
;WIPE_START
G1 F8640
G1 X119.538 Y79.955 E-.01371
G1 X120.951 Y78.44 E-.47835
G1 X121.406 Y78.081 E-.13383
G1 X122.627 Y77.359 E-.32753
G1 X122.816 Y77.288 E-.04658
;WIPE_END
G1 Z.4 F720
; printing object Scissor_Wallmount_Cliper.stl id:0 copy 0
G1 X123.22 Y83.303 F10800
G1 Z.2 F720
G1 E1 F2100
M204 S800
;TYPE:Perimeter
;WIDTH:0.419999
G1 F1200
G1 X123.289 Y83.276 E.00232
G1 X123.925 Y83.213 E.02004
G1 X126.262 Y83.213 E.07327
G1 X126.679 Y83.266 E.01318
G1 X127.03 Y83.393 E.0117
G1 X127.347 Y83.59 E.0117
G1 X127.679 Y83.936 E.01504
G1 X127.826 Y84.159 E.00837
G1 X127.974 Y84.539 E.01279
G1 X128.037 Y84.983 E.01406
G1 X128.037 Y93.892 E.27933
G1 X128.238 Y94.404 E.01725
G1 X128.335 Y94.872 E.01499
G1 X128.322 Y95.246 E.01173
G1 X128.205 Y95.666 E.01367
G1 X128.053 Y96.063 E.01333
G1 X128.037 Y96.406 E.01077
G1 X128.037 Y105.012 E.26983
G1 X127.984 Y105.429 E.01318
G1 X127.857 Y105.78 E.0117
G1 X127.66 Y106.097 E.0117
G1 X127.401 Y106.366 E.01171
G1 X127.091 Y106.576 E.01174
G1 X126.711 Y106.724 E.01279
G1 X126.267 Y106.787 E.01406
G1 X123.738 Y106.787 E.07929
G1 X123.321 Y106.734 E.01318
G1 X122.97 Y106.607 E.0117
G1 X122.653 Y106.41 E.0117
G1 X122.384 Y106.151 E.01171
G1 X122.174 Y105.841 E.01174
G1 X122.026 Y105.461 E.01279
G1 X121.963 Y105.017 E.01406
G1 X121.963 Y96.42 E.26955
G1 X121.947 Y96.038 E.01199
G1 X121.731 Y95.496 E.01829
G1 X121.665 Y95.047 E.01423
G1 X121.678 Y94.754 E.0092
G1 X121.797 Y94.328 E.01387
G1 X121.947 Y93.937 E.01313
G1 X121.963 Y93.601 E.01055
G1 X121.963 Y84.988 E.27005
G1 X122.016 Y84.571 E.01318
G1 X122.143 Y84.22 E.0117
G1 X122.341 Y83.903 E.01172
G1 X122.599 Y83.634 E.01169
G1 X122.909 Y83.424 E.01174
G1 X123.164 Y83.325 E.00858
M204 S1000
G1 X123.164 Y83.325 F10800
G1 X123.325 Y83.658
M204 S800
;TYPE:External perimeter
G1 F1200
G1 X123.348 Y83.649 E.00077
G1 X123.925 Y83.59 E.01819
G1 X126.262 Y83.59 E.07327
G1 X126.722 Y83.677 E.01468
G1 X127.095 Y83.871 E.01318
G1 X127.374 Y84.158 E.01255
G1 X127.587 Y84.551 E.01402
G1 X127.66 Y84.983 E.01374
G1 X127.66 Y93.909 E.27987
G1 X127.705 Y94.107 E.00637
M73 P1 R29
M73 Q1 S29
G1 X127.9 Y94.583 E.01613
G1 X127.958 Y95.047 E.01466
G1 X127.886 Y95.46 E.01314
G1 X127.715 Y95.816 E.01238
G1 X127.66 Y96.24 E.01341
G1 X127.66 Y105.012 E.27504
G1 X127.625 Y105.312 E.00947
G1 X127.53 Y105.592 E.00927
G1 X127.379 Y105.845 E.00924
G1 X127.179 Y106.061 E.00923
G1 X126.938 Y106.231 E.00925
G1 X126.652 Y106.351 E.00972
G1 X126.267 Y106.41 E.01221
G1 X123.738 Y106.41 E.07929
G1 X123.438 Y106.375 E.00947
G1 X123.158 Y106.28 E.00927
G1 X122.905 Y106.129 E.00924
G1 X122.689 Y105.929 E.00923
G1 X122.519 Y105.688 E.00925
G1 X122.399 Y105.402 E.00972
G1 X122.34 Y105.017 E.01221
G1 X122.34 Y96.42 E.26955
G1 X122.329 Y95.975 E.01396
G1 X122.11 Y95.451 E.01781
G1 X122.042 Y95.047 E.01285
G1 X122.1 Y94.583 E.01466
G1 X122.285 Y94.184 E.01379
G1 X122.34 Y93.76 E.01341
G1 X122.34 Y84.988 E.27504
G1 X122.375 Y84.688 E.00947
G1 X122.47 Y84.408 E.00927
G1 X122.621 Y84.155 E.00924
G1 X122.821 Y83.939 E.00923
G1 X123.062 Y83.769 E.00925
G1 X123.27 Y83.682 E.00707
M204 S1000
;WIPE_START
G1 F8640
G1 X123.325 Y83.658 E-.01386
G1 X123.348 Y83.649 E-.0057
G1 X123.925 Y83.59 E-.13393
G1 X126.262 Y83.59 E-.53962
G1 X126.722 Y83.677 E-.1081
G1 X127.095 Y83.871 E-.09708
G1 X127.374 Y84.158 E-.09242
G1 X127.393 Y84.193 E-.00929
;WIPE_END
G1 Z.4 F720
G1 X131.463 Y130.213 F10800
G1 Z.2 F720
G1 E1 F2100
M204 S800
;TYPE:Perimeter
G1 F1200
G1 X118.537 Y130.213 E.40528
G1 X118.537 Y95.016 E1.10358
G1 X118.645 Y92.285 E.0857
G1 X118.964 Y89.657 E.083
G1 X119.483 Y87.201 E.07871
G1 X120.182 Y84.998 E.07247
G1 X121.032 Y83.122 E.06458
G1 X121.994 Y81.636 E.0555
G1 X123.012 Y80.589 E.04579
G1 X124.024 Y79.99 E.03687
G1 X125 Y79.802 E.03116
G1 X125.976 Y79.99 E.03116
G1 X126.988 Y80.589 E.03687
G1 X128.006 Y81.636 E.04579
G1 X128.968 Y83.122 E.0555
G1 X129.818 Y84.998 E.06458
G1 X130.517 Y87.201 E.07247
G1 X131.036 Y89.657 E.07871
G1 X131.355 Y92.285 E.083
G1 X131.463 Y95.047 E.08667
G1 X131.463 Y130.153 E1.10072
M204 S1000
G1 X131.84 Y130.59 F10800
M204 S800
;TYPE:External perimeter
G1 F1200
G1 X118.16 Y130.59 E.42893
G1 X118.16 Y95.008 E1.11565
G1 X118.269 Y92.255 E.08639
M73 P1 R28
G1 X118.592 Y89.595 E.08401
G1 X119.118 Y87.105 E.0798
G1 X119.83 Y84.863 E.07376
G1 X120.701 Y82.94 E.06619
G1 X121.697 Y81.4 E.0575
G1 X122.776 Y80.29 E.04854
G1 X123.889 Y79.632 E.04054
G1 X125 Y79.418 E.03547
G1 X126.111 Y79.632 E.03547
G1 X127.224 Y80.29 E.04054
G1 X128.303 Y81.4 E.04854
G1 X129.299 Y82.94 E.0575
G1 X130.17 Y84.863 E.06619
G1 X130.882 Y87.105 E.07376
G1 X131.408 Y89.595 E.0798
G1 X131.731 Y92.255 E.08401
G1 X131.84 Y95.047 E.08761
G1 X131.84 Y130.53 E1.11254
M204 S1000
;WIPE_START
G1 F8640
G1 X131.84 Y130.59 E-.01385
G1 X127.569 Y130.59 E-.98615
;WIPE_END
G1 Z.4 F720
G1 X126.29 Y80.373 F10800
G1 Z.2 F720
G1 E1 F2100
M204 S800
;TYPE:Solid infill
;WIDTH:0.423304
G1 F1200
G1 X127.74 Y81.849 E.06544
G1 X128.673 Y83.294 E.0544
G1 X125.652 Y80.273 E.13513
G1 X124.99 Y80.149 E.0213
G1 X129.119 Y84.278 E.18469
G1 X129.536 Y85.233 E.03296
G1 X124.539 Y80.236 E.22352
G1 X124.146 Y80.312 E.01266
G1 X124.103 Y80.338 E.00159
G1 X126.693 Y82.928 E.11585
G1 X126.775 Y82.94 E.00262
G1 X127.192 Y83.094 E.01406
G1 X127.565 Y83.33 E.01396
G1 X127.774 Y83.518 E.00889
G1 X128.044 Y83.86 E.01378
G1 X128.131 Y84.01 E.00548
G1 X128.292 Y84.399 E.01332
G1 X128.314 Y84.549 E.0048
G1 X129.786 Y86.021 E.06584
G1 X130.036 Y86.809 E.02615
M73 Q2 S29
G1 X128.376 Y85.149 E.07425
G1 X128.376 Y85.687 E.01702
G1 X130.245 Y87.556 E.0836
G1 X130.389 Y88.238 E.02205
G1 X128.376 Y86.225 E.09004
M73 P2 R28
G1 X128.376 Y86.763 E.01702
G1 X130.533 Y88.92 E.09648
G1 X130.677 Y89.602 E.02205
G1 X128.376 Y87.301 E.10292
G1 X128.376 Y87.839 E.01702
G1 X130.763 Y90.225 E.10675
G1 X130.837 Y90.838 E.01953
G1 X128.376 Y88.377 E.11008
G1 X128.376 Y88.915 E.01702
G1 X130.911 Y91.45 E.11339
G1 X130.986 Y92.062 E.0195
G1 X128.376 Y89.453 E.11672
G1 X128.376 Y89.991 E.01702
G1 X131.029 Y92.644 E.11867
G1 X131.051 Y93.204 E.01773
G1 X128.376 Y90.529 E.11965
G1 X128.376 Y91.067 E.01702
G1 X131.074 Y93.764 E.12066
G1 X131.096 Y94.324 E.01773
G1 X128.376 Y91.605 E.12164
G1 X128.376 Y92.143 E.01702
G1 X131.118 Y94.884 E.12263
G1 X131.124 Y95.428 E.01721
G1 X128.376 Y92.681 E.1229
G1 X128.376 Y93.218 E.01698
G1 X131.124 Y95.966 E.12292
G1 X131.124 Y96.503 E.01698
G1 X128.376 Y93.756 E.1229
G1 X128.376 Y93.855 E.00313
G1 X128.599 Y94.424 E.01933
G1 X128.62 Y94.538 E.00367
G1 X131.124 Y97.041 E.11198
G1 X131.124 Y97.579 E.01702
G1 X128.674 Y95.13 E.10957
G1 X128.595 Y95.588 E.0147
M73 Q2 S28
G1 X131.124 Y98.117 E.11312
G1 X131.124 Y98.655 E.01702
G1 X128.437 Y95.968 E.12019
G1 X128.403 Y96.039 E.00249
G1 X128.376 Y96.182 E.0046
G1 X128.376 Y96.446 E.00835
G1 X131.124 Y99.193 E.1229
G1 X131.124 Y99.731 E.01702
G1 X128.376 Y96.984 E.1229
G1 X128.376 Y97.521 E.01698
G1 X131.124 Y100.269 E.12292
G1 X131.124 Y100.807 E.01702
G1 X128.376 Y98.059 E.12292
G1 X128.375 Y98.597 E.01702
G1 X131.124 Y101.345 E.12294
G1 X131.124 Y101.883 E.01702
G1 X128.375 Y99.134 E.12296
G1 X128.375 Y99.672 E.01702
G1 X131.124 Y102.421 E.12296
G1 X131.124 Y102.959 E.01702
G1 X128.375 Y100.21 E.12296
G1 X128.374 Y100.748 E.01702
G1 X131.124 Y103.497 E.12299
G1 X131.124 Y104.035 E.01702
G1 X128.374 Y101.285 E.12301
G1 X128.374 Y101.823 E.01702
G1 X131.124 Y104.573 E.12301
G1 X131.124 Y105.111 E.01702
G1 X128.374 Y102.361 E.12301
G1 X128.373 Y102.898 E.01698
G1 X131.124 Y105.649 E.12305
G1 X131.124 Y106.186 E.01698
G1 X128.373 Y103.436 E.12303
G1 X128.373 Y103.974 E.01702
G1 X131.124 Y106.724 E.12303
G1 X131.124 Y107.262 E.01702
G1 X128.373 Y104.511 E.12305
G1 X128.372 Y105.049 E.01702
G1 X131.124 Y107.8 E.12308
G1 X131.124 Y108.338 E.01702
G1 X128.31 Y105.525 E.12585
G1 X128.165 Y105.918 E.01325
G1 X131.124 Y108.876 E.13233
G1 X131.124 Y109.414 E.01702
G1 X127.96 Y106.251 E.1415
G1 X127.711 Y106.54 E.01207
G1 X131.124 Y109.952 E.15264
G1 X131.124 Y110.49 E.01702
G1 X127.411 Y106.777 E.16608
G1 X127.056 Y106.96 E.01263
G1 X131.124 Y111.028 E.18196
G1 X131.124 Y111.566 E.01702
G1 X126.635 Y107.077 E.20079
G1 X126.278 Y107.126 E.0114
G1 X126.146 Y107.126 E.00418
G1 X131.124 Y112.104 E.22267
G1 X131.124 Y112.642 E.01702
G1 X125.608 Y107.126 E.24673
G1 X125.07 Y107.126 E.01702
G1 X131.124 Y113.18 E.2708
G1 X131.124 Y113.718 E.01702
G1 X124.532 Y107.126 E.29486
G1 X123.994 Y107.126 E.01702
G1 X131.124 Y114.256 E.31893
G1 X131.124 Y114.794 E.01702
G1 X123.193 Y106.864 E.35473
M204 S1000
;WIPE_START
G1 F8640
G1 X126.255 Y109.926 E-1
;WIPE_END
G1 Z.4 F720
G1 X126.274 Y83.047 F10800
G1 Z.2 F720
G1 E1 F2100
M204 S800
G1 F1200
G1 X123.765 Y80.538 E.11223
G1 X123.427 Y80.738 E.01242
G1 X125.565 Y82.876 E.09563
G1 X125.026 Y82.875 E.01705
G1 X123.118 Y80.967 E.08535
G1 X122.853 Y81.239 E.01201
G1 X124.487 Y82.874 E.07311
G1 X123.949 Y82.874 E.01702
G1 X122.588 Y81.512 E.0609
G1 X122.322 Y81.785 E.01206
G1 X123.449 Y82.911 E.05039
G1 X123.228 Y82.942 E.00706
G1 X123.008 Y83.009 E.00727
G1 X122.098 Y82.099 E.0407
G1 X121.887 Y82.426 E.01231
G1 X122.648 Y83.186 E.03402
G1 X122.342 Y83.418 E.01215
G1 X121.676 Y82.752 E.02979
G1 X121.464 Y83.079 E.01233
G1 X122.077 Y83.692 E.02742
G1 X121.87 Y84.022 E.01232
G1 X121.269 Y83.421 E.02688
G1 X121.101 Y83.792 E.01288
G1 X121.714 Y84.405 E.02742
G1 X121.655 Y84.644 E.00779
G1 X121.635 Y84.863 E.00696
G1 X120.934 Y84.162 E.03136
G1 X120.766 Y84.532 E.01285
G1 X121.624 Y85.39 E.03838
G1 X121.624 Y85.928 E.01702
G1 X120.598 Y84.902 E.04589
G1 X120.5 Y85.12 E.00756
G1 X120.446 Y85.288 E.00558
G1 X121.624 Y86.466 E.05269
G1 X121.624 Y87.004 E.01702
G1 X120.317 Y85.697 E.05846
G1 X120.187 Y86.105 E.01354
G1 X121.624 Y87.541 E.06426
G1 X121.624 Y88.079 E.01702
G1 X120.058 Y86.513 E.07005
G1 X119.928 Y86.922 E.01357
G1 X121.624 Y88.617 E.07584
G1 X121.624 Y89.155 E.01702
G1 X119.802 Y87.334 E.08148
G1 X119.708 Y87.778 E.01435
G1 X121.624 Y89.693 E.08568
G1 X121.624 Y90.231 E.01702
G1 X119.614 Y88.222 E.08989
G1 X119.521 Y88.666 E.01435
G1 X121.624 Y90.769 E.09407
G1 X121.624 Y91.307 E.01702
G1 X119.427 Y89.11 E.09827
G1 X119.333 Y89.554 E.01435
G1 X121.624 Y91.845 E.10248
G1 X121.624 Y92.383 E.01702
G1 X119.262 Y90.021 E.10565
G1 X119.204 Y90.501 E.01529
M73 Q3 S28
G1 X121.624 Y92.921 E.10825
G1 X121.624 Y93.459 E.01702
G1 X119.146 Y90.981 E.11084
M73 P3 R28
G1 X119.087 Y91.461 E.0153
G1 X121.594 Y93.967 E.11212
G1 X121.429 Y94.341 E.01293
G1 X119.029 Y91.94 E.10737
G1 X118.979 Y92.428 E.01552
G1 X121.338 Y94.787 E.10552
G1 X121.326 Y94.861 E.00237
G1 X121.351 Y95.338 E.01511
G1 X118.959 Y92.946 E.10699
G1 X118.938 Y93.463 E.01637
G1 X121.624 Y96.149 E.12015
G1 X121.624 Y96.687 E.01702
G1 X118.918 Y93.981 E.12104
G1 X118.897 Y94.498 E.01637
G1 X121.624 Y97.224 E.12196
G1 X121.624 Y97.762 E.01702
G1 X118.877 Y95.016 E.12285
G1 X118.876 Y95.553 E.01698
G1 X121.624 Y98.3 E.1229
G1 X121.624 Y98.838 E.01702
G1 X118.876 Y96.091 E.1229
G1 X118.876 Y96.629 E.01702
G1 X121.624 Y99.376 E.1229
G1 X121.624 Y99.914 E.01702
G1 X118.876 Y97.167 E.1229
G1 X118.876 Y97.705 E.01702
G1 X121.624 Y100.452 E.1229
G1 X121.624 Y100.99 E.01702
G1 X118.876 Y98.243 E.1229
G1 X118.876 Y98.781 E.01702
G1 X121.624 Y101.528 E.1229
G1 X121.624 Y102.066 E.01702
G1 X118.876 Y99.319 E.1229
G1 X118.876 Y99.857 E.01702
G1 X121.624 Y102.604 E.1229
G1 X121.624 Y103.142 E.01702
G1 X118.876 Y100.395 E.1229
G1 X118.876 Y100.933 E.01702
G1 X121.624 Y103.68 E.1229
G1 X121.624 Y104.218 E.01702
G1 X118.876 Y101.471 E.1229
G1 X118.876 Y102.009 E.01702
G1 X121.624 Y104.756 E.1229
G1 X121.624 Y105.028 E.0086
G1 X121.667 Y105.337 E.00987
G1 X118.876 Y102.547 E.12482
G1 X118.876 Y103.084 E.01698
G1 X131.124 Y115.332 E.54786
G1 X131.124 Y115.869 E.01698
G1 X118.876 Y103.622 E.54783
G1 X118.876 Y104.16 E.01702
G1 X131.124 Y116.407 E.54783
G1 X131.124 Y116.945 E.01702
G1 X118.876 Y104.698 E.54783
G1 X118.876 Y105.236 E.01702
G1 X131.124 Y117.483 E.54783
G1 X131.124 Y118.021 E.01702
G1 X118.876 Y105.774 E.54783
G1 X118.876 Y106.312 E.01702
G1 X131.124 Y118.559 E.54783
G1 X131.124 Y119.097 E.01702
G1 X118.876 Y106.85 E.54783
G1 X118.876 Y107.388 E.01702
G1 X131.124 Y119.635 E.54783
G1 X131.124 Y120.173 E.01702
G1 X118.876 Y107.926 E.54783
G1 X118.876 Y108.464 E.01702
G1 X131.124 Y120.711 E.54783
G1 X131.124 Y121.249 E.01702
G1 X118.876 Y109.002 E.54783
G1 X118.876 Y109.54 E.01702
G1 X131.124 Y121.787 E.54783
G1 X131.124 Y122.325 E.01702
G1 X118.876 Y110.078 E.54783
G1 X118.876 Y110.616 E.01702
M73 P4 R28
M73 Q4 S28
G1 X131.124 Y122.863 E.54783
G1 X131.124 Y123.401 E.01702
G1 X118.876 Y111.154 E.54783
G1 X118.876 Y111.692 E.01702
G1 X131.124 Y123.939 E.54783
G1 X131.124 Y124.477 E.01702
G1 X118.876 Y112.23 E.54783
G1 X118.876 Y112.767 E.01698
G1 X131.124 Y125.015 E.54786
G1 X131.124 Y125.552 E.01698
G1 X118.876 Y113.305 E.54783
G1 X118.876 Y113.843 E.01702
G1 X131.124 Y126.09 E.54783
G1 X131.124 Y126.628 E.01702
G1 X118.876 Y114.381 E.54783
G1 X118.876 Y114.919 E.01702
G1 X131.124 Y127.166 E.54783
G1 X131.124 Y127.704 E.01702
G1 X118.876 Y115.457 E.54783
G1 X118.876 Y115.995 E.01702
G1 X131.124 Y128.242 E.54783
G1 X131.124 Y128.78 E.01702
G1 X118.876 Y116.533 E.54783
G1 X118.876 Y117.071 E.01702
G1 X131.124 Y129.318 E.54783
G1 X131.124 Y129.856 E.01702
G1 X118.876 Y117.609 E.54783
G1 X118.876 Y118.147 E.01702
G1 X130.603 Y129.874 E.52455
