; generated by PrusaSlicer 2.8.0+win64 on 2024-07-22 at 17:30:13 UTC


;
;
; 

; external perimeters extrusion width = 0.60mm
; perimeters extrusion width = 0.50mm
; infill extrusion width = 0.50mm
; solid infill extrusion width = 0.50mm
; top infill extrusion width = 0.45mm
; first layer extrusion width = 0.42mm

M73 P0 R28
M73 Q0 S29
M201 X1000 Y1000 Z200 E5000 ; sets maximum accelerations, mm/sec^2
M203 X200 Y200 Z12 E120 ; sets maximum feedrates, mm / sec
M204 S1250 T1250 ; sets acceleration (S) and retract acceleration (R), mm/sec^2
M205 X8.00 Y8.00 Z0.40 E4.50 ; sets the jerk limits, mm/sec
M205 S0 T0 ; sets the minimum extruding and travel feed rate, mm/sec

; printing object Scissor_Wallmount.stl id:0 copy 0
; stop printing object Scissor_Wallmount.stl id:0 copy 0

;TYPE:Custom
M862.3 P "MK3S" ; printer model check
M862.1 P0.4 ; nozzle diameter check
M115 U3.13.3 ; tell printer latest fw version
G90 ; use absolute coordinates
M83 ; extruder relative mode
M104 S230 ; set extruder temp
M140 S85 ; set bed temp
M190 S85 ; wait for bed temp
M109 S230 ; wait for extruder temp
G28 W ; home all without mesh bed level
G80 X114.123 Y77.1312 W21.7542 H55.7458 ; mesh bed levelling

G1 Z0.2 F720
G1 Y-3 F1000 ; go outside print area
G92 E0
G1 X60 E9 F1000 ; intro line
G1 X100 E12.5 F1000 ; intro line

G92 E0
M221 S95

; Don't change E values below. Excessive value can damage the printer.

M907 E538 ; set extruder motor current
G21 ; set units to millimeters
G90 ; use absolute coordinates
M83 ; use relative distances for extrusion

M900 K0.08 ; Filament gcode LA 1.5
M900 K45 ; Filament gcode LA 1.0




M107
;LAYER_CHANGE
;Z:0.2
;HEIGHT:0.2
G1 E-1 F2100
G1 Z.4 F720
G1 X118.655 Y80.967 F10800
M73 Q0 S28
G1 Z.2 F720
G1 E1 F2100
M204 S800
;TYPE:Skirt/Brim
;WIDTH:0.42
G1 F1200
G1 X119.394 Y80.076 E.0363
G1 X120.869 Y78.742 E.06236
G1 X121.77 Y78.17 E.03346
G1 X122.734 Y77.729 E.03324
G1 X123.754 Y77.44 E.03324
G1 X125.208 Y77.321 E.04574
G1 X126.246 Y77.44 E.03276
G1 X126.943 Y77.619 E.02256
G1 X128.23 Y78.17 E.0439
G1 X129.131 Y78.742 E.03346
G1 X130.592 Y80.06 E.06169
G1 X131.344 Y80.965 E.03689
G1 X132.113 Y82.091 E.04275
G1 X133.278 Y84.315 E.07872
G1 X134.218 Y86.82 E.08389
G1 X134.934 Y89.563 E.08889
G1 X135.417 Y92.482 E.09277
G1 X135.569 Y93.987 E.04743
G1 X135.688 Y96.955 E.09313
G1 X135.689 Y130.5 E1.05178
G1 X135.298 Y131.748 E.04101
G1 X134.265 Y132.551 E.04102
G1 X133.5 Y132.689 E.02437
G1 X116.5 Y132.689 E.53302
G1 X115.252 Y132.298 E.04101
G1 X114.449 Y131.265 E.04102
G1 X114.311 Y130.5 E.02437
G1 X114.312 Y96.955 E1.05178
G1 X114.431 Y93.987 E.09313
G1 X114.795 Y91.004 E.09422
G1 X115.422 Y88.062 E.09432
G1 X116.268 Y85.419 E.08701
G1 X117.345 Y83.036 E.08199
G1 X118.622 Y81.018 E.07488
M204 S1000
;WIPE_START
G1 F8640
G1 X118.655 Y80.967 E-.01403
G1 X119.394 Y80.076 E-.26729
G1 X120.869 Y78.742 E-.45921
G1 X121.77 Y78.17 E-.24643
G1 X121.821 Y78.147 E-.01304
;WIPE_END
G1 Z.4 F720
; printing object Scissor_Wallmount.stl id:0 copy 0
G1 X120.854 Y108.338 F10800
G1 Z.2 F720
G1 E1 F2100
M204 S800
;TYPE:Perimeter
;WIDTH:0.419999
G1 F1200
G1 X120.72 Y107.606 E.02333
G1 X120.713 Y101.851 E.18044
G1 X120.686 Y101.674 E.00561
G1 X120.493 Y101.536 E.00744
G1 X119.97 Y101.253 E.01865
G1 X119.646 Y101.015 E.01261
G1 X119.254 Y100.584 E.01827
G1 X118.961 Y100.081 E.01825
G1 X118.781 Y99.551 E.01755
G1 X118.713 Y98.949 E.019
G1 X118.713 Y95.062 E.12187
G1 X118.763 Y94.552 E.01607
G1 X118.932 Y93.995 E.01825
G1 X119.212 Y93.484 E.01827
G1 X119.592 Y93.043 E.01825
G1 X120.056 Y92.691 E.01826
G1 X120.567 Y92.419 E.01815
G1 X120.675 Y92.333 E.00433
G1 X120.703 Y91.704 E.01974
G1 X120.713 Y86.487 E.16358
G1 X120.763 Y85.979 E.016
G1 X120.932 Y85.421 E.01828
G1 X121.212 Y84.911 E.01824
G1 X121.592 Y84.471 E.01823
G1 X122.056 Y84.118 E.01828
G1 X122.588 Y83.867 E.01844
G1 X123.161 Y83.757 E.01829
G1 X123.525 Y83.713 E.0115
G1 X126.512 Y83.713 E.09366
G1 X127.021 Y83.763 E.01604
G1 X127.579 Y83.932 E.01828
G1 X128.089 Y84.212 E.01824
G1 X128.53 Y84.592 E.01825
G1 X128.882 Y85.056 E.01826
G1 X129.133 Y85.588 E.01844
G1 X129.28 Y86.394 E.02569
G1 X129.287 Y92.149 E.18044
G1 X129.314 Y92.326 E.00561
G1 X129.507 Y92.464 E.00744
G1 X129.927 Y92.677 E.01477
G1 X130.354 Y92.985 E.01651
G1 X130.742 Y93.411 E.01807
G1 X131.039 Y93.919 E.01845
G1 X131.211 Y94.411 E.01634
G1 X131.283 Y94.985 E.01814
G1 X131.287 Y98.938 E.12394
G1 X131.237 Y99.448 E.01607
M73 Q1 S28
G1 X131.068 Y100.005 E.01825
G1 X130.788 Y100.516 E.01827
G1 X130.408 Y100.957 E.01825
G1 X130 Y101.268 E.01609
G1 X129.433 Y101.581 E.02031
G1 X129.325 Y101.667 E.00433
G1 X129.297 Y102.296 E.01974
G1 X129.287 Y107.513 E.16358
G1 X129.237 Y108.021 E.016
M73 P1 R28
G1 X129.068 Y108.579 E.01828
G1 X128.788 Y109.089 E.01824
G1 X128.408 Y109.53 E.01825
G1 X127.944 Y109.882 E.01826
G1 X127.412 Y110.133 E.01844
G1 X126.606 Y110.28 E.02569
G1 X123.488 Y110.287 E.09776
G1 X122.979 Y110.237 E.01604
G1 X122.421 Y110.068 E.01828
G1 X121.911 Y109.788 E.01824
G1 X121.47 Y109.408 E.01825
G1 X121.118 Y108.944 E.01826
G1 X120.867 Y108.412 E.01844
G1 X120.864 Y108.397 E.00048
M204 S1000
G1 X120.864 Y108.397 F10800
G1 X121.207 Y108.234
M204 S800
;TYPE:External perimeter
G1 F1200
G1 X121.198 Y108.214 E.00069
G1 X121.092 Y107.547 E.02118
G1 X121.09 Y101.823 E.17947
G1 X121.008 Y101.468 E.01142
G1 X120.84 Y101.281 E.00788
G1 X120.361 Y101.06 E.01654
G1 X119.92 Y100.755 E.01681
G1 X119.576 Y100.387 E.01579
G1 X119.316 Y99.955 E.01581
G1 X119.151 Y99.475 E.01591
G1 X119.09 Y98.949 E.0166
G1 X119.09 Y95.062 E.12187
G1 X119.146 Y94.557 E.01593
G1 X119.306 Y94.075 E.01592
G1 X119.562 Y93.641 E.0158
G1 X119.902 Y93.269 E.0158
G1 X120.302 Y92.981 E.01545
G1 X120.891 Y92.676 E.0208
G1 X121.023 Y92.497 E.00697
G1 X121.079 Y92.199 E.00951
G1 X121.09 Y86.488 E.17906
G1 X121.145 Y85.986 E.01583
G1 X121.306 Y85.502 E.01599
G1 X121.562 Y85.067 E.01583
G1 X121.902 Y84.696 E.01578
G1 X122.312 Y84.403 E.0158
G1 X122.789 Y84.197 E.01629
G1 X123.453 Y84.092 E.02108
G1 X126.512 Y84.09 E.09591
G1 X127.02 Y84.147 E.01603
G1 X127.498 Y84.306 E.01579
G1 X127.933 Y84.562 E.01583
G1 X128.304 Y84.902 E.01578
G1 X128.597 Y85.312 E.0158
G1 X128.803 Y85.789 E.01629
G1 X128.908 Y86.453 E.02108
G1 X128.91 Y92.177 E.17947
G1 X128.992 Y92.532 E.01142
G1 X129.16 Y92.719 E.00788
G1 X129.639 Y92.94 E.01654
G1 X130.08 Y93.245 E.01681
G1 X130.423 Y93.611 E.01573
G1 X130.684 Y94.045 E.01588
G1 X130.849 Y94.525 E.01591
G1 X130.909 Y95.029 E.01591
G1 X130.91 Y98.938 E.12256
G1 X130.853 Y99.447 E.01606
G1 X130.694 Y99.925 E.01579
G1 X130.438 Y100.359 E.0158
G1 X130.098 Y100.731 E.0158
G1 X129.698 Y101.018 E.01544
G1 X129.109 Y101.324 E.02081
G1 X128.977 Y101.503 E.00697
G1 X128.921 Y101.801 E.00951
G1 X128.91 Y107.512 E.17906
G1 X128.853 Y108.02 E.01603
G1 X128.694 Y108.498 E.01579
G1 X128.438 Y108.933 E.01583
G1 X128.098 Y109.304 E.01578
G1 X127.688 Y109.597 E.0158
G1 X127.211 Y109.802 E.01628
G1 X126.547 Y109.908 E.02108
G1 X123.488 Y109.91 E.09591
G1 X122.98 Y109.853 E.01603
G1 X122.502 Y109.694 E.01579
G1 X122.067 Y109.438 E.01583
G1 X121.696 Y109.098 E.01578
G1 X121.403 Y108.688 E.0158
G1 X121.231 Y108.289 E.01362
M204 S1000
;WIPE_START
G1 F8640
G1 X121.207 Y108.234 E-.01386
G1 X121.198 Y108.214 E-.00506
G1 X121.092 Y107.547 E-.15594
G1 X121.091 Y103.974 E-.82514
;WIPE_END
G1 Z.4 F720
G1 X117.299 Y114.844 F10800
G1 Z.2 F720
G1 E1 F2100
M204 S800
;TYPE:Perimeter
G1 F1200
G1 X117.414 Y114.595 E.0086
G1 X117.419 Y114.381 E.00671
G1 X117.287 Y114.1 E.00973
G1 X117.287 Y97.007 E.53594
G1 X117.316 Y95.587 E.04453
G1 X117.401 Y94.183 E.0441
G1 X117.541 Y92.8 E.04358
G1 X117.737 Y91.447 E.04287
G1 X117.986 Y90.135 E.04187
G1 X118.286 Y88.871 E.04073
G1 X118.634 Y87.667 E.0393
G1 X119.029 Y86.53 E.03774
G1 X119.465 Y85.47 E.03594
G1 X119.939 Y84.493 E.03405
G1 X120.447 Y83.608 E.03199
G1 X120.983 Y82.82 E.02988
G1 X121.54 Y82.137 E.02763
G1 X122.113 Y81.56 E.0255
G1 X122.694 Y81.093 E.02337
G1 X123.277 Y80.736 E.02143
G1 X123.856 Y80.486 E.01977
G1 X124.43 Y80.338 E.01859
G1 X125 Y80.29 E.01794
G1 X125.57 Y80.338 E.01794
G1 X126.144 Y80.486 E.01859
G1 X126.723 Y80.736 E.01977
G1 X127.306 Y81.093 E.02143
G1 X127.887 Y81.56 E.02337
G1 X128.46 Y82.137 E.0255
G1 X129.017 Y82.82 E.02763
G1 X129.553 Y83.608 E.02988
G1 X130.061 Y84.493 E.03199
G1 X130.535 Y85.47 E.03405
G1 X130.971 Y86.53 E.03594
G1 X131.366 Y87.667 E.03774
G1 X131.714 Y88.871 E.0393
G1 X132.014 Y90.135 E.04073
G1 X132.263 Y91.447 E.04187
G1 X132.459 Y92.8 E.04287
G1 X132.599 Y94.183 E.04358
G1 X132.684 Y95.587 E.0441
G1 X132.713 Y97.007 E.04453
G1 X132.713 Y114.056 E.53456
G1 X132.592 Y114.331 E.00942
G1 X132.581 Y114.57 E.0075
G1 X132.713 Y114.87 E.01028
G1 X132.713 Y115.005 E.00423
G1 X132.713 Y129.713 E.46116
G1 X117.287 Y129.713 E.48367
G1 X117.287 Y114.902 E.46439
M204 S1000
G1 X117.287 Y114.902 F10800
G1 X116.954 Y114.674
M204 S800
;TYPE:External perimeter
G1 F1200
G1 X117.049 Y114.462 E.00728
G1 X116.91 Y114.226 E.00859
G1 X116.91 Y97.003 E.54001
G1 X116.939 Y95.571 E.04491
G1 X117.025 Y94.153 E.04454
G1 X117.167 Y92.754 E.04409
G1 X117.365 Y91.385 E.04337
G1 X117.617 Y90.056 E.04241
G1 X117.921 Y88.775 E.04128
G1 X118.275 Y87.553 E.03989
G1 X118.676 Y86.397 E.03836
G1 X119.121 Y85.315 E.03668
G1 X119.606 Y84.317 E.03479
G1 X120.127 Y83.408 E.03285
G1 X120.68 Y82.595 E.03083
G1 X121.26 Y81.884 E.02877
G1 X121.86 Y81.279 E.02672
G1 X122.477 Y80.784 E.0248
G1 X123.103 Y80.4 E.02303
G1 X123.734 Y80.128 E.02154
G1 X124.367 Y79.965 E.02049
G1 X125 Y79.911 E.01992
G1 X125.633 Y79.965 E.01992
G1 X126.266 Y80.128 E.02049
G1 X126.897 Y80.4 E.02154
G1 X127.523 Y80.784 E.02303
G1 X128.14 Y81.279 E.0248
G1 X128.74 Y81.884 E.02672
G1 X129.32 Y82.595 E.02877
G1 X129.873 Y83.408 E.03083
G1 X130.394 Y84.317 E.03285
G1 X130.879 Y85.315 E.03479
G1 X131.324 Y86.397 E.03668
G1 X131.725 Y87.553 E.03836
G1 X132.079 Y88.775 E.03989
G1 X132.383 Y90.056 E.04128
G1 X132.635 Y91.385 E.04241
G1 X132.833 Y92.754 E.04337
G1 X132.975 Y94.153 E.04409
G1 X133.061 Y95.571 E.04454
G1 X133.09 Y97.003 E.04491
G1 X133.09 Y114.226 E.54001
G1 X132.951 Y114.461 E.00856
G1 X133.09 Y114.771 E.01065
G1 X133.09 Y115.005 E.00734
G1 X133.09 Y130.09 E.47298
G1 X116.91 Y130.09 E.50731
G1 X116.91 Y114.771 E.48032
G1 X116.929 Y114.729 E.00145
M204 S1000
;WIPE_START
G1 F8640
G1 X116.954 Y114.674 E-.01395
G1 X117.049 Y114.462 E-.05364
G1 X116.91 Y114.226 E-.06324
G1 X116.91 Y110.462 E-.86917
;WIPE_END
G1 Z.4 F720
G1 X126.874 Y81.027 F10800
G1 Z.2 F720
M73 Q2 S28
G1 E1 F2100
M73 P2 R28
M204 S800
;TYPE:Solid infill
;WIDTH:0.420722
G1 F1200
G1 X128.207 Y82.364 E.05931
G1 X128.745 Y83.023 E.02672
G1 X129.265 Y83.788 E.02906
G1 X129.487 Y84.175 E.01402
G1 X126.186 Y80.874 E.14665
G1 X126.034 Y80.808 E.00521
G1 X125.447 Y80.669 E.01895
G1 X130.073 Y85.295 E.20552
G1 X130.225 Y85.608 E.01093
G1 X130.486 Y86.242 E.02154
G1 X124.884 Y80.64 E.24888
G1 X124.405 Y80.695 E.01515
G1 X127.165 Y83.455 E.12262
G1 X127.07 Y83.427 E.00311
G1 X126.552 Y83.377 E.01635
G1 X123.98 Y80.804 E.11429
G1 X123.605 Y80.964 E.01281
G1 X126.014 Y83.374 E.10705
G1 X125.48 Y83.374 E.01678
G1 X123.254 Y81.148 E.09889
G1 X122.923 Y81.351 E.0122
G1 X124.946 Y83.374 E.08988
G1 X124.411 Y83.374 E.01681
G1 X122.623 Y81.585 E.07946
G1 X122.328 Y81.825 E.01195
G1 X123.877 Y83.374 E.06882
G1 X123.471 Y83.374 E.01275
G1 X123.36 Y83.391 E.00353
G1 X122.062 Y82.093 E.05767
G1 X121.796 Y82.361 E.01186
G1 X122.899 Y83.464 E.049
G1 X122.545 Y83.52 E.01126
G1 X122.459 Y83.558 E.00295
G1 X121.555 Y82.655 E.04014
G1 X121.316 Y82.949 E.0119
G1 X122.089 Y83.722 E.03434
G1 X121.937 Y83.79 E.00523
G1 X121.753 Y83.921 E.0071
G1 X121.093 Y83.261 E.02932
G1 X120.877 Y83.579 E.01208
G1 X121.446 Y84.149 E.0253
G1 X121.186 Y84.423 E.01187
G1 X120.668 Y83.904 E.02304
G1 X120.473 Y84.244 E.01231
G1 X120.939 Y84.71 E.0207
G1 X120.749 Y85.053 E.01232
G1 X120.279 Y84.584 E.02086
G1 X120.1 Y84.939 E.01249
G1 X120.577 Y85.416 E.02119
G1 X120.448 Y85.822 E.01338
G1 X119.925 Y85.299 E.02324
G1 X119.753 Y85.661 E.01259
G1 X120.389 Y86.297 E.02826
G1 X120.377 Y86.819 E.0164
G1 X119.597 Y86.04 E.03463
G1 X119.442 Y86.418 E.01283
G1 X120.375 Y87.352 E.04147
G1 X120.374 Y87.885 E.01674
G1 X119.293 Y86.804 E.04803
G1 X119.155 Y87.2 E.01317
G1 X120.372 Y88.418 E.05409
G1 X120.371 Y88.95 E.01671
G1 X119.018 Y87.597 E.06011
G1 X118.89 Y88.004 E.0134
G1 X120.37 Y89.483 E.06573
G1 X120.368 Y90.016 E.01674
G1 X118.77 Y88.418 E.07099
G1 X118.65 Y88.833 E.01357
G1 X120.367 Y90.549 E.07626
G1 X120.366 Y91.082 E.01674
G1 X118.543 Y89.259 E.08099
G1 X118.44 Y89.691 E.01395
G1 X120.364 Y91.615 E.08548
G1 X120.363 Y92.144 E.01662
G1 X118.338 Y90.123 E.08988
G1 X118.249 Y90.568 E.01426
G1 X120.011 Y92.33 E.07828
G1 X119.88 Y92.4 E.00467
G1 X119.687 Y92.54 E.00749
G1 X118.164 Y91.018 E.06764
G1 X118.079 Y91.467 E.01436
G1 X119.386 Y92.774 E.05807
G1 X119.131 Y93.054 E.0119
G1 X118.01 Y91.932 E.04982
G1 X117.942 Y92.399 E.01483
G1 X118.898 Y93.354 E.04245
G1 X118.701 Y93.692 E.01229
G1 X117.876 Y92.867 E.03665
G1 X117.826 Y93.352 E.01532
G1 X118.549 Y94.074 E.0321
G1 X118.457 Y94.359 E.00941
G1 X118.439 Y94.498 E.0044
G1 X117.777 Y93.836 E.02941
G1 X117.732 Y94.326 E.01546
G1 X118.379 Y94.973 E.02874
G1 X118.375 Y95.503 E.01665
G1 X117.701 Y94.829 E.02994
G1 X117.671 Y95.333 E.01586
G1 X118.375 Y96.037 E.03128
G1 X118.374 Y96.571 E.01678
G1 X117.65 Y95.846 E.03219
G1 X117.639 Y96.37 E.01646
G1 X118.374 Y97.105 E.03265
G1 X118.374 Y97.639 E.01678
G1 X117.629 Y96.894 E.0331
G1 X117.626 Y97.426 E.01671
G1 X118.374 Y98.173 E.03321
G1 X118.374 Y98.707 E.01678
G1 X117.626 Y97.96 E.03321
G1 X117.626 Y98.495 E.01681
G1 X118.409 Y99.277 E.03476
G1 X118.44 Y99.567 E.00916
G1 X118.483 Y99.749 E.00587
G1 X118.568 Y99.97 E.00744
G1 X117.626 Y99.029 E.04183
G1 X117.626 Y99.563 E.01678
G1 X120.374 Y102.31 E.12206
G1 X120.374 Y102.844 E.01678
G1 X117.626 Y100.097 E.12206
G1 X117.626 Y100.632 E.01681
G1 X120.374 Y103.379 E.12206
G1 X120.374 Y103.913 E.01678
G1 X117.626 Y101.166 E.12206
G1 X117.626 Y101.7 E.01678
G1 X120.374 Y104.447 E.12206
G1 X120.374 Y104.982 E.01681
G1 X117.626 Y102.235 E.12206
G1 X117.626 Y102.769 E.01678
G1 X120.374 Y105.516 E.12206
G1 X120.374 Y106.05 E.01678
G1 X117.626 Y103.303 E.12206
G1 X117.626 Y103.837 E.01678
G1 X120.374 Y106.585 E.12208
G1 X120.374 Y107.119 E.01678
G1 X117.626 Y104.372 E.12206
G1 X117.626 Y104.906 E.01678
G1 X120.395 Y107.675 E.12302
G1 X120.487 Y108.301 E.01988
G1 X117.457 Y105.271 E.13461
M204 S1000
;WIPE_START
G1 F8640
G1 X120.487 Y108.301 E-.98943
G1 X120.48 Y108.256 E-.01057
;WIPE_END
G1 Z.4 F720
G1 X131.085 Y87.375 F10800
G1 Z.2 F720
G1 E1 F2100
M204 S800
G1 F1200
G1 X129.531 Y85.822 E.06902
G1 X129.623 Y86.448 E.01988
G1 X131.082 Y87.906 E.0648
G1 X131.299 Y88.658 E.02459
G1 X129.626 Y86.986 E.0743
G1 X129.626 Y87.52 E.01678
G1 X131.486 Y89.379 E.08261
G1 X131.652 Y90.08 E.02263
G1 X129.626 Y88.054 E.09001
G1 X129.626 Y88.589 E.01681
G1 X131.785 Y90.747 E.09589
G1 X131.91 Y91.406 E.02107
G1 X129.626 Y89.123 E.10145
G1 X129.626 Y89.657 E.01678
G1 X132.005 Y92.036 E.10569
G1 X132.095 Y92.66 E.01981
G1 X129.626 Y90.191 E.10969
G1 X129.626 Y90.726 E.01681
G1 X132.165 Y93.264 E.11278
G1 X132.225 Y93.859 E.01879
G1 X129.626 Y91.26 E.11546
G1 X129.626 Y91.794 E.01678
G1 X132.275 Y94.443 E.11769
G1 X132.31 Y95.012 E.01791
G1 X131.495 Y94.197 E.03621
G1 X131.542 Y94.331 E.00446
G1 X131.602 Y94.838 E.01604
G1 X132.344 Y95.58 E.03296
G1 X132.356 Y96.126 E.01716
G1 X131.626 Y95.397 E.03241
G1 X131.626 Y95.931 E.01678
G1 X132.367 Y96.672 E.03292
G1 X132.374 Y97.213 E.017
G1 X131.625 Y96.464 E.03328
G1 X131.624 Y96.998 E.01678
G1 X132.374 Y97.747 E.0333
G1 X132.374 Y98.281 E.01678
G1 X131.624 Y97.532 E.0333
G1 X131.623 Y98.065 E.01674
G1 X132.374 Y98.816 E.03336
G1 X132.374 Y99.35 E.01678
G1 X131.623 Y98.599 E.03336
G1 X131.612 Y99.122 E.01643
G1 X132.374 Y99.884 E.03385
G1 X132.374 Y100.419 E.01681
G1 X131.551 Y99.596 E.03656
G1 X131.424 Y100.004 E.01342
G1 X132.374 Y100.953 E.04218
G1 X132.374 Y101.487 E.01678
G1 X131.254 Y100.368 E.04974
G1 X131.063 Y100.711 E.01233
