; generated by PrusaSlicer 2.8.0+win64 on 2024-07-22 at 17:08:00 UTC


;
;
; 

; external perimeters extrusion width = 0.60mm
; perimeters extrusion width = 0.50mm
; infill extrusion width = 0.50mm
; solid infill extrusion width = 0.50mm
; top infill extrusion width = 0.45mm
; first layer extrusion width = 0.42mm

M73 P0 R3
M73 Q0 S3
M201 X1000 Y1000 Z200 E5000 ; sets maximum accelerations, mm/sec^2
M203 X200 Y200 Z12 E120 ; sets maximum feedrates, mm / sec
M204 S1250 T1250 ; sets acceleration (S) and retract acceleration (R), mm/sec^2
M205 X8.00 Y8.00 Z0.40 E4.50 ; sets the jerk limits, mm/sec
M205 S0 T0 ; sets the minimum extruding and travel feed rate, mm/sec

; printing object V2_Fitting_XY_Scissor_Wallmount.stl id:0 copy 0
; stop printing object V2_Fitting_XY_Scissor_Wallmount.stl id:0 copy 0

;TYPE:Custom
M862.3 P "MK3S" ; printer model check
M862.1 P0.4 ; nozzle diameter check
M115 U3.13.3 ; tell printer latest fw version
G90 ; use absolute coordinates
M83 ; extruder relative mode
M104 S230 ; set extruder temp
M140 S85 ; set bed temp
M190 S85 ; wait for bed temp
M109 S230 ; wait for extruder temp
G28 W ; home all without mesh bed level
G80 X114.123 Y77.6315 W21.7542 H54.7456 ; mesh bed levelling

G1 Z0.2 F720
G1 Y-3 F1000 ; go outside print area
G92 E0
G1 X60 E9 F1000 ; intro line
G1 X100 E12.5 F1000 ; intro line
M73 P1 R3
M73 Q1 S3

G92 E0
M221 S95

; Don't change E values below. Excessive value can damage the printer.

M907 E538 ; set extruder motor current
G21 ; set units to millimeters
G90 ; use absolute coordinates
M83 ; use relative distances for extrusion

M900 K0.08 ; Filament gcode LA 1.5
M900 K45 ; Filament gcode LA 1.0




M107
;LAYER_CHANGE
;Z:0.2
;HEIGHT:0.2
G1 E-1 F2100
M73 P3 R3
M73 Q3 S3
G1 Z.4 F720
G1 X118.655 Y81.467 F10800
G1 Z.2 F720
G1 E1 F2100
M204 S800
;TYPE:Skirt/Brim
;WIDTH:0.42
G1 F1200
G1 X119.402 Y80.567 E.03667
G1 X120.869 Y79.242 E.06198
G1 X121.77 Y78.67 E.03346
G1 X122.734 Y78.229 E.03324
G1 X123.754 Y77.94 E.03324
G1 X125.326 Y77.831 E.04941
G1 X126.246 Y77.94 E.02905
G1 X126.943 Y78.119 E.02256
G1 X128.23 Y78.67 E.0439
G1 X129.131 Y79.242 E.03346
M73 Q4 S3
G1 X130.598 Y80.567 E.06198
G1 X131.345 Y81.467 E.03667
G1 X132.119 Y82.601 E.04305
G1 X133.278 Y84.815 E.07835
M73 P4 R3
G1 X134.218 Y87.32 E.08389
G1 X134.934 Y90.063 E.08889
G1 X135.417 Y92.982 E.09277
G1 X135.569 Y94.487 E.04743
G1 X135.688 Y97.455 E.09313
G1 X135.689 Y130 E1.02043
G1 X135.298 Y131.248 E.04101
M73 P5 R3
M73 Q5 S3
G1 X134.265 Y132.051 E.04102
G1 X133.5 Y132.189 E.02437
G1 X116.5 Y132.189 E.53302
G1 X115.252 Y131.798 E.04101
G1 X114.449 Y130.765 E.04102
G1 X114.311 Y130 E.02437
G1 X114.312 Y97.455 E1.02043
G1 X114.431 Y94.487 E.09313
M73 P6 R3
M73 Q6 S3
G1 X114.795 Y91.505 E.09419
G1 X115.422 Y88.562 E.09435
G1 X116.268 Y85.919 E.08701
M73 Q7 S3
G1 X117.345 Y83.536 E.08199
G1 X118.622 Y81.518 E.07488
M73 P7 R3
M204 S1000
;WIPE_START
G1 F8640
G1 X118.655 Y81.467 E-.01403
G1 X119.402 Y80.567 E-.27007
G1 X120.869 Y79.242 E-.45645
G1 X121.77 Y78.67 E-.24643
G1 X121.821 Y78.647 E-.01302
;WIPE_END
G1 Z.4 F720
; printing object V2_Fitting_XY_Scissor_Wallmount.stl id:0 copy 0
G1 X127.338 Y110.646 F10800
G1 Z.2 F720
G1 E1 F2100
M204 S800
;TYPE:Perimeter
;WIDTH:0.419999
G1 F1200
G1 X126.606 Y110.78 E.02333
G1 X123.488 Y110.787 E.09776
G1 X122.979 Y110.737 E.01604
G1 X122.421 Y110.568 E.01828
G1 X121.911 Y110.288 E.01824
G1 X121.47 Y109.908 E.01825
G1 X121.118 Y109.444 E.01826
G1 X120.867 Y108.912 E.01844
G1 X120.72 Y108.106 E.02569
G1 X120.713 Y102.351 E.18044
G1 X120.686 Y102.174 E.00561
G1 X120.493 Y102.036 E.00744
G1 X119.97 Y101.753 E.01865
G1 X119.646 Y101.515 E.01261
G1 X119.254 Y101.084 E.01827
G1 X118.961 Y100.581 E.01825
G1 X118.781 Y100.051 E.01755
M73 Q8 S3
G1 X118.713 Y99.449 E.019
G1 X118.713 Y95.562 E.12187
G1 X118.763 Y95.052 E.01607
G1 X118.932 Y94.495 E.01825
G1 X119.212 Y93.984 E.01827
G1 X119.592 Y93.543 E.01825
M73 P8 R3
G1 X120.056 Y93.191 E.01826
G1 X120.567 Y92.919 E.01815
G1 X120.675 Y92.833 E.00433
G1 X120.703 Y92.204 E.01974
G1 X120.713 Y86.987 E.16358
G1 X120.763 Y86.479 E.016
G1 X120.932 Y85.921 E.01828
G1 X121.212 Y85.411 E.01824
G1 X121.592 Y84.971 E.01823
G1 X122.056 Y84.618 E.01828
G1 X122.588 Y84.367 E.01844
G1 X123.161 Y84.257 E.01829
G1 X123.525 Y84.213 E.0115
G1 X126.512 Y84.213 E.09366
G1 X127.021 Y84.263 E.01604
G1 X127.579 Y84.432 E.01828
G1 X128.089 Y84.712 E.01824
G1 X128.53 Y85.092 E.01825
G1 X128.882 Y85.556 E.01826
G1 X129.133 Y86.088 E.01844
G1 X129.28 Y86.894 E.02569
G1 X129.287 Y92.649 E.18044
G1 X129.314 Y92.826 E.00561
G1 X129.507 Y92.964 E.00744
G1 X129.927 Y93.177 E.01477
G1 X130.354 Y93.485 E.01651
G1 X130.742 Y93.911 E.01807
M73 Q8 S2
G1 X131.039 Y94.419 E.01845
M73 P8 R2
G1 X131.211 Y94.911 E.01634
G1 X131.283 Y95.485 E.01814
G1 X131.287 Y99.438 E.12394
G1 X131.237 Y99.948 E.01607
M73 Q9 S2
G1 X131.068 Y100.505 E.01825
G1 X130.788 Y101.016 E.01827
G1 X130.408 Y101.457 E.01825
G1 X130 Y101.768 E.01609
G1 X129.433 Y102.081 E.02031
G1 X129.325 Y102.167 E.00433
G1 X129.297 Y102.796 E.01974
G1 X129.287 Y108.013 E.16358
G1 X129.237 Y108.521 E.016
M73 P9 R2
G1 X129.068 Y109.079 E.01828
G1 X128.788 Y109.589 E.01824
G1 X128.408 Y110.03 E.01825
G1 X127.944 Y110.382 E.01826
G1 X127.412 Y110.633 E.01844
G1 X127.397 Y110.636 E.00048
M204 S1000
G1 X127.397 Y110.636 F10800
G1 X127.234 Y110.293
M204 S800
;TYPE:External perimeter
G1 F1200
G1 X127.211 Y110.303 E.00079
G1 X126.547 Y110.408 E.02108
G1 X123.488 Y110.41 E.09591
G1 X122.98 Y110.353 E.01603
G1 X122.502 Y110.194 E.01579
G1 X122.067 Y109.938 E.01583
G1 X121.696 Y109.598 E.01578
G1 X121.403 Y109.188 E.0158
G1 X121.198 Y108.714 E.01619
G1 X121.092 Y108.047 E.02118
G1 X121.09 Y102.323 E.17947
G1 X121.008 Y101.968 E.01142
G1 X120.84 Y101.781 E.00788
G1 X120.361 Y101.56 E.01654
G1 X119.92 Y101.255 E.01681
G1 X119.576 Y100.887 E.01579
G1 X119.316 Y100.455 E.01581
G1 X119.151 Y99.975 E.01591
G1 X119.09 Y99.449 E.0166
G1 X119.09 Y95.562 E.12187
G1 X119.146 Y95.057 E.01593
G1 X119.306 Y94.575 E.01592
G1 X119.562 Y94.141 E.0158
G1 X119.902 Y93.769 E.0158
G1 X120.302 Y93.481 E.01545
G1 X120.891 Y93.176 E.0208
G1 X121.023 Y92.997 E.00697
G1 X121.079 Y92.699 E.00951
G1 X121.09 Y86.988 E.17906
G1 X121.145 Y86.486 E.01583
M73 Q10 S2
G1 X121.306 Y86.002 E.01599
G1 X121.562 Y85.567 E.01583
G1 X121.902 Y85.196 E.01578
G1 X122.312 Y84.903 E.0158
M73 P10 R2
G1 X122.789 Y84.697 E.01629
G1 X123.453 Y84.592 E.02108
G1 X126.512 Y84.59 E.09591
G1 X127.02 Y84.647 E.01603
G1 X127.498 Y84.806 E.01579
G1 X127.933 Y85.062 E.01583
G1 X128.304 Y85.402 E.01578
G1 X128.597 Y85.812 E.0158
G1 X128.803 Y86.289 E.01629
G1 X128.908 Y86.953 E.02108
G1 X128.91 Y92.677 E.17947
G1 X128.992 Y93.032 E.01142
G1 X129.16 Y93.219 E.00788
G1 X129.639 Y93.44 E.01654
G1 X130.08 Y93.745 E.01681
G1 X130.423 Y94.111 E.01573
G1 X130.684 Y94.545 E.01588
G1 X130.849 Y95.025 E.01591
G1 X130.909 Y95.529 E.01591
G1 X130.91 Y99.438 E.12256
G1 X130.853 Y99.947 E.01606
G1 X130.694 Y100.425 E.01579
G1 X130.438 Y100.859 E.0158
G1 X130.098 Y101.231 E.0158
G1 X129.698 Y101.519 E.01545
G1 X129.109 Y101.824 E.0208
G1 X128.977 Y102.003 E.00697
G1 X128.921 Y102.301 E.00951
G1 X128.91 Y108.012 E.17906
G1 X128.853 Y108.52 E.01603
G1 X128.694 Y108.998 E.01579
G1 X128.438 Y109.433 E.01583
G1 X128.098 Y109.804 E.01578
M73 Q11 S2
G1 X127.688 Y110.097 E.0158
G1 X127.289 Y110.269 E.01362
M204 S1000
;WIPE_START
G1 F8640
G1 X127.234 Y110.293 E-.01386
G1 X127.211 Y110.303 E-.00579
G1 X126.547 Y110.408 E-.15522
G1 X123.488 Y110.41 E-.70633
G1 X122.98 Y110.353 E-.11803
G1 X122.977 Y110.352 E-.00077
;WIPE_END
G1 Z.4 F720
G1 X117.299 Y115.344 F10800
G1 Z.2 F720
M73 P11 R2
G1 E1 F2100
M204 S800
;TYPE:Perimeter
G1 F1200
G1 X117.414 Y115.095 E.0086
G1 X117.419 Y114.881 E.00671
G1 X117.287 Y114.6 E.00973
G1 X117.287 Y97.507 E.53594
G1 X117.316 Y96.087 E.04453
G1 X117.401 Y94.683 E.0441
G1 X117.541 Y93.3 E.04358
G1 X117.737 Y91.947 E.04287
G1 X117.986 Y90.635 E.04187
G1 X118.286 Y89.371 E.04073
G1 X118.634 Y88.167 E.0393
G1 X119.029 Y87.03 E.03774
G1 X119.465 Y85.97 E.03594
G1 X119.939 Y84.993 E.03405
M73 Q12 S2
G1 X120.447 Y84.108 E.03199
G1 X120.983 Y83.32 E.02988
G1 X121.54 Y82.637 E.02763
G1 X122.113 Y82.06 E.0255
G1 X122.694 Y81.593 E.02337
G1 X123.277 Y81.236 E.02143
G1 X123.856 Y80.986 E.01977
M73 P12 R2
G1 X124.43 Y80.838 E.01859
G1 X125 Y80.79 E.01794
G1 X125.57 Y80.838 E.01794
G1 X126.144 Y80.986 E.01859
G1 X126.723 Y81.236 E.01977
G1 X127.306 Y81.593 E.02143
G1 X127.887 Y82.06 E.02337
G1 X128.46 Y82.637 E.0255
G1 X129.017 Y83.32 E.02763
G1 X129.553 Y84.108 E.02988
G1 X130.061 Y84.993 E.03199
G1 X130.535 Y85.97 E.03405
G1 X130.971 Y87.03 E.03594
G1 X131.366 Y88.167 E.03774
G1 X131.714 Y89.371 E.0393
G1 X132.014 Y90.635 E.04073
G1 X132.263 Y91.947 E.04187
G1 X132.459 Y93.3 E.04287
G1 X132.599 Y94.683 E.04358
G1 X132.684 Y96.087 E.0441
G1 X132.713 Y97.507 E.04453
G1 X132.713 Y114.556 E.53456
G1 X132.592 Y114.83 E.00939
M73 Q13 S2
G1 X132.581 Y115.07 E.00753
M73 P13 R2
G1 X132.713 Y115.37 E.01028
G1 X132.713 Y115.505 E.00423
G1 X132.713 Y129.213 E.4298
G1 X117.287 Y129.213 E.48367
G1 X117.287 Y115.402 E.43303
M204 S1000
G1 X117.287 Y115.402 F10800
M73 P14 R2
M73 Q14 S2
G1 X116.954 Y115.174
M204 S800
;TYPE:External perimeter
G1 F1200
G1 X117.049 Y114.962 E.00728
G1 X116.91 Y114.726 E.00859
G1 X116.91 Y97.503 E.54001
G1 X116.939 Y96.071 E.04491
G1 X117.025 Y94.653 E.04454
G1 X117.167 Y93.254 E.04409
G1 X117.365 Y91.885 E.04337
G1 X117.617 Y90.556 E.04241
G1 X117.921 Y89.275 E.04128
G1 X118.275 Y88.053 E.03989
G1 X118.676 Y86.897 E.03836
M73 Q15 S2
G1 X119.121 Y85.815 E.03668
G1 X119.606 Y84.817 E.03479
G1 X120.127 Y83.908 E.03285
G1 X120.68 Y83.095 E.03083
G1 X121.26 Y82.384 E.02877
G1 X121.86 Y81.779 E.02672
G1 X122.477 Y81.284 E.0248
M73 P15 R2
G1 X123.103 Y80.9 E.02303
G1 X123.734 Y80.628 E.02154
G1 X124.367 Y80.465 E.02049
G1 X125 Y80.411 E.01992
G1 X125.633 Y80.465 E.01992
G1 X126.266 Y80.628 E.02049
G1 X126.897 Y80.9 E.02154
G1 X127.523 Y81.284 E.02303
G1 X128.14 Y81.779 E.0248
G1 X128.74 Y82.384 E.02672
G1 X129.32 Y83.095 E.02877
G1 X129.873 Y83.908 E.03083
G1 X130.394 Y84.817 E.03285
G1 X130.879 Y85.815 E.03479
G1 X131.324 Y86.897 E.03668
G1 X131.725 Y88.053 E.03836
G1 X132.079 Y89.275 E.03989
G1 X132.383 Y90.556 E.04128
G1 X132.635 Y91.885 E.04241
G1 X132.833 Y93.254 E.04337
G1 X132.975 Y94.653 E.04409
G1 X133.061 Y96.071 E.04454
G1 X133.09 Y97.503 E.04491
G1 X133.09 Y114.726 E.54001
G1 X132.951 Y114.961 E.00856
M73 P16 R2
M73 Q16 S2
G1 X133.09 Y115.271 E.01065
G1 X133.09 Y115.505 E.00734
G1 X133.09 Y129.59 E.44162
G1 X116.91 Y129.59 E.50731
G1 X116.91 Y115.271 E.44896
M73 Q17 S2
G1 X116.929 Y115.229 E.00145
M73 P17 R2
M204 S1000
;WIPE_START
G1 F8640
G1 X116.954 Y115.174 E-.01395
G1 X117.049 Y114.962 E-.05364
G1 X116.91 Y114.726 E-.06324
G1 X116.91 Y110.962 E-.86917
;WIPE_END
G1 Z.4 F720
G1 X126.873 Y81.527 F10800
G1 Z.2 F720
G1 E1 F2100
M204 S800
;TYPE:Solid infill
;WIDTH:0.421175
G1 F1200
G1 X128.207 Y82.864 E.0594
G1 X128.745 Y83.524 E.02678
G1 X129.265 Y84.288 E.02907
G1 X129.488 Y84.677 E.0141
G1 X126.184 Y81.373 E.14696
G1 X126.034 Y81.308 E.00514
G1 X125.445 Y81.168 E.01904
G1 X130.074 Y85.798 E.20592
G1 X130.225 Y86.108 E.01085
M73 Q18 S2
G1 X130.487 Y86.746 E.02169
G1 X124.882 Y81.141 E.24931
M73 P18 R2
G1 X124.402 Y81.196 E.0152
G1 X127.152 Y83.945 E.1223
G1 X126.548 Y83.876 E.01912
G1 X123.977 Y81.305 E.11436
G1 X123.602 Y81.465 E.01282
G1 X126.01 Y83.874 E.10713
G1 X125.475 Y83.874 E.01683
G1 X123.251 Y81.65 E.09892
G1 X122.92 Y81.853 E.01221
G1 X124.94 Y83.874 E.08987
G1 X124.405 Y83.874 E.01683
G1 X122.62 Y82.088 E.07942
G1 X122.325 Y82.328 E.01196
M73 Q19 S2
G1 X123.875 Y83.878 E.06894
G1 X123.346 Y83.884 E.01664
G1 X122.058 Y82.596 E.05729
G1 X121.792 Y82.865 E.0119
G1 X122.889 Y83.962 E.04879
G1 X122.545 Y84.02 E.01097
M73 P19 R2
G1 X122.452 Y84.06 E.00318
G1 X121.552 Y83.159 E.04005
G1 X121.311 Y83.454 E.01198
G1 X122.08 Y84.223 E.03421
G1 X121.861 Y84.339 E.00779
G1 X121.748 Y84.426 E.00449
G1 X121.089 Y83.767 E.02931
G1 X120.873 Y84.085 E.01209
G1 X121.446 Y84.658 E.02549
G1 X121.348 Y84.734 E.0039
G1 X121.181 Y84.929 E.00807
G1 X120.664 Y84.412 E.023
G1 X120.469 Y84.752 E.01233
G1 X120.935 Y85.217 E.02071
G1 X120.744 Y85.562 E.0124
G1 X120.274 Y85.091 E.02093
G1 X120.096 Y85.448 E.01255
G1 X120.574 Y85.926 E.02126
G1 X120.445 Y86.332 E.0134
G1 X119.921 Y85.808 E.02331
G1 X119.749 Y86.171 E.01263
G1 X120.391 Y86.813 E.02856
G1 X120.373 Y87.33 E.01627
G1 X119.593 Y86.55 E.03469
G1 X119.437 Y86.929 E.01289
G1 X120.372 Y87.864 E.04159
G1 X120.371 Y88.398 E.0168
G1 X119.289 Y87.316 E.04813
G1 X119.151 Y87.713 E.01322
G1 X120.37 Y88.932 E.05422
G1 X120.369 Y89.466 E.0168
G1 X119.013 Y88.11 E.06031
G1 X118.886 Y88.518 E.01344
G1 X120.368 Y90 E.06592
G1 X120.367 Y90.534 E.0168
G1 X118.766 Y88.933 E.07121
G1 X118.646 Y89.348 E.01359
M73 Q20 S2
G1 X120.366 Y91.068 E.07651
G1 X120.365 Y91.601 E.01676
G1 X118.539 Y89.775 E.08122
G1 X118.436 Y90.208 E.014
G1 X120.364 Y92.135 E.08573
M73 P20 R2
G1 X120.363 Y92.644 E.01601
G1 X120.346 Y92.653 E.0006
G1 X118.333 Y90.64 E.08954
G1 X118.246 Y91.087 E.01432
G1 X119.997 Y92.838 E.07788
G1 X119.673 Y93.05 E.01218
G1 X118.16 Y91.537 E.0673
G1 X118.075 Y91.986 E.01437
G1 X119.38 Y93.292 E.05807
G1 X119.12 Y93.566 E.01188
G1 X118.007 Y92.453 E.04951
G1 X117.939 Y92.92 E.01484
G1 X118.895 Y93.876 E.04252
G1 X118.692 Y94.208 E.01224
G1 X117.873 Y93.39 E.03641
G1 X117.824 Y93.875 E.01533
G1 X118.548 Y94.599 E.0322
G1 X118.457 Y94.858 E.00863
G1 X118.437 Y95.023 E.00523
G1 X117.775 Y94.361 E.02945
G1 X117.73 Y94.851 E.01548
G1 X118.38 Y95.501 E.02891
G1 X118.374 Y96.03 E.01664
G1 X117.7 Y95.356 E.02998
G1 X117.669 Y95.86 E.01588
G1 X118.375 Y96.566 E.0314
G1 X118.376 Y97.101 E.01683
G1 X117.649 Y96.375 E.03231
G1 X117.639 Y96.899 E.01648
G1 X118.376 Y97.637 E.0328
M73 Q21 S2
G1 X118.377 Y98.173 E.01686
G1 X117.628 Y97.424 E.03332
G1 X117.626 Y97.957 E.01676
G1 X118.378 Y98.708 E.03343
G1 X118.378 Y99.244 E.01686
G1 X117.626 Y98.492 E.03345
G1 X117.626 Y99.027 E.01683
G1 X118.41 Y99.81 E.03485
M73 P21 R2
G1 X118.482 Y100.247 E.01393
G1 X118.576 Y100.511 E.00881
G1 X117.626 Y99.562 E.04223
G1 X117.626 Y100.097 E.01683
G1 X120.374 Y102.844 E.12221
G1 X120.374 Y103.379 E.01683
G1 X117.626 Y100.632 E.12221
G1 X117.626 Y101.167 E.01683
G1 X120.374 Y103.914 E.12221
G1 X120.374 Y104.449 E.01683
G1 X117.626 Y101.702 E.12221
G1 X117.626 Y102.236 E.0168
G1 X120.374 Y104.984 E.12223
G1 X120.374 Y105.518 E.0168
G1 X117.626 Y102.771 E.12221
G1 X117.626 Y103.306 E.01683
M73 Q22 S2
G1 X120.374 Y106.053 E.12221
G1 X120.374 Y106.588 E.01683
G1 X117.626 Y103.841 E.12221
G1 X117.626 Y104.376 E.01683
M73 P22 R2
G1 X120.374 Y107.123 E.12221
G1 X120.374 Y107.658 E.01683
G1 X117.626 Y104.911 E.12221
G1 X117.626 Y105.446 E.01683
G1 X120.402 Y108.221 E.12345
G1 X120.495 Y108.849 E.01997
G1 X117.457 Y105.811 E.13513
M204 S1000
;WIPE_START
G1 F8640
G1 X120.495 Y108.849 E-.99205
G1 X120.49 Y108.815 E-.00795
;WIPE_END
G1 Z.4 F720
G1 X131.086 Y87.88 F10800
G1 Z.2 F720
G1 E1 F2100
M204 S800
G1 F1200
M73 Q23 S2
G1 X129.526 Y86.32 E.06939
G1 X129.624 Y86.952 E.02012
G1 X131.083 Y88.411 E.0649
G1 X131.301 Y89.164 E.02466
G1 X129.626 Y87.49 E.07448
G1 X129.626 Y88.025 E.01683
M73 P23 R2
G1 X131.487 Y89.886 E.08278
G1 X131.654 Y90.587 E.02266
G1 X129.626 Y88.56 E.09018
G1 X129.626 Y89.095 E.01683
G1 X131.786 Y91.254 E.09605
G1 X131.911 Y91.914 E.02113
G1 X129.626 Y89.63 E.10161
G1 X129.626 Y90.164 E.0168
G1 X132.006 Y92.544 E.10586
G1 X132.097 Y93.17 E.0199
G1 X129.626 Y90.699 E.10991
G1 X129.626 Y91.234 E.01683
G1 X132.166 Y93.773 E.11296
G1 X132.226 Y94.369 E.01884
G1 X129.626 Y91.769 E.11565
G1 X129.626 Y92.304 E.01683
M73 Q24 S2
G1 X132.276 Y94.954 E.11787
G1 X132.31 Y95.523 E.01793
M73 P24 R2
G1 X131.504 Y94.717 E.03585
G1 X131.56 Y94.932 E.00699
G1 X131.609 Y95.356 E.01342
G1 X132.345 Y96.092 E.03274
G1 X132.356 Y96.639 E.01721
G1 X131.625 Y95.908 E.03251
G1 X131.625 Y96.443 E.01683
G1 X132.367 Y97.184 E.03298
G1 X132.374 Y97.726 E.01705
